luts/lume_20260429_195807.cube
TITLE "Lume Grade"
LUT_3D_SIZE 9
0.0087683 0.0307033 0.0465865
0.1033361 0.0265037 0.0423869
0.3266868 0.0165851 0.0324683
0.5421041 0.0070188 0.0229020
0.7532525 0.0000000 0.0135253
0.9614654 0.0000000 0.0042789
1.0000000 0.0000000 0.0000000
1.0000000 0.0000000 0.0000000
1.0000000 0.0000000 0.0000000
0.0027338 0.0668563 0.0405520
0.0973016 0.0626567 0.0363524
0.3206523 0.0527381 0.0264338
0.5360697 0.0431718 0.0168675
0.7472180 0.0337951 0.0074908
0.9554309 0.0245487 0.0000000
1.0000000 0.0154016 0.0000000
1.0000000 0.0143681 0.0000000
1.0000000 0.0143681 0.0000000
0.0000000 0.2476213 0.0103796
0.0671291 0.2434218 0.0061800
0.2904798 0.2335031 0.0000000
0.5058972 0.2239368 0.0000000
0.7170455 0.2145601 0.0000000
0.9252585 0.2053137 0.0000000
1.0000000 0.1961666 0.0000000
1.0000000 0.1951332 0.0000000
1.0000000 0.1951332 0.0000000
0.0000000 0.4283863 0.0000000
0.0369565 0.4241867 0.0000000
0.2603073 0.4142681 0.0000000
0.4757247 0.4047018 0.0000000
0.6868730 0.3953251 0.0000000
0.8950859 0.3860787 0.0000000
1.0000000 0.3769316 0.0000000
1.0000000 0.3758982 0.0000000
1.0000000 0.3758982 0.0000000
0.0000000 0.6091513 0.0000000
0.0067841 0.6049517 0.0000000
0.2301348 0.5950331 0.0000000
0.4455522 0.5854668 0.0000000
0.6567005 0.5760901 0.0000000
0.8649135 0.5668437 0.0000000
1.0000000 0.5576966 0.0000000
1.0000000 0.5566632 0.0000000
1.0000000 0.5566632 0.0000000
0.0000000 0.7899163 0.0000000
0.0000000 0.7857167 0.0000000
0.1999623 0.7757981 0.0000000
0.4153797 0.7662318 0.0000000
0.6265280 0.7568551 0.0000000
0.8347409 0.7476087 0.0000000
1.0000000 0.7384616 0.0000000
1.0000000 0.7374281 0.0000000
1.0000000 0.7374281 0.0000000
0.0000000 0.9706814 0.0000000
0.0000000 0.9664817 0.0000000
0.1697898 0.9565632 0.0000000
0.3852072 0.9469969 0.0000000
0.5963555 0.9376201 0.0000000
0.8045684 0.9283738 0.0000000
1.0000000 0.9192266 0.0000000
1.0000000 0.9181932 0.0000000
1.0000000 0.9181932 0.0000000
0.0000000 1.0000000 0.0000000
0.0000000 1.0000000 0.0000000
0.1532508 1.0000000 0.0000000
0.3686682 1.0000000 0.0000000
0.5798165 1.0000000 0.0000000
0.7880294 1.0000000 0.0000000
0.9940075 1.0000000 0.0000000
1.0000000 1.0000000 0.0000000
1.0000000 1.0000000 0.0000000
0.0000000 1.0000000 0.0000000
0.0000000 1.0000000 0.0000000
0.1532508 1.0000000 0.0000000
0.3686682 1.0000000 0.0000000
0.5798165 1.0000000 0.0000000
0.7880294 1.0000000 0.0000000
0.9940075 1.0000000 0.0000000
1.0000000 1.0000000 0.0000000
1.0000000 1.0000000 0.0000000
0.0087579 0.0306930 0.0472929
0.1033257 0.0264934 0.0430933
0.3266764 0.0165748 0.0331747
0.5420938 0.0070085 0.0236084
0.7532422 0.0000000 0.0142316
0.9614550 0.0000000 0.0049853
1.0000000 0.0000000 0.0000000
1.0000000 0.0000000 0.0000000
1.0000000 0.0000000 0.0000000
0.0027234 0.0668460 0.0412584
0.0972912 0.0626464 0.0370588
0.3206419 0.0527278 0.0271402
0.5360593 0.0431615 0.0175739
0.7472076 0.0337847 0.0081971
0.9554206 0.0245384 0.0000000
1.0000000 0.0153913 0.0000000
1.0000000 0.0143578 0.0000000
1.0000000 0.0143578 0.0000000
0.0000000 0.2476110 0.0110859
0.0671187 0.2434114 0.0068863
0.2904694 0.2334928 0.0000000
0.5058868 0.2239265 0.0000000
0.7170352 0.2145498 0.0000000
0.9252480 0.2053034 0.0000000
1.0000000 0.1961563 0.0000000
1.0000000 0.1951228 0.0000000
1.0000000 0.1951228 0.0000000
0.0000000 0.4283760 0.0000000
0.0369462 0.4241764 0.0000000
0.2602969 0.4142578 0.0000000
0.4757143 0.4046915 0.0000000
0.6868627 0.3953148 0.0000000
0.8950756 0.3860684 0.0000000
1.0000000 0.3769213 0.0000000
1.0000000 0.3758878 0.0000000
1.0000000 0.3758878 0.0000000
0.0000000 0.6091410 0.0000000
0.0067737 0.6049414 0.0000000
0.2301244 0.5950228 0.0000000
0.4455418 0.5854565 0.0000000
0.6566902 0.5760797 0.0000000
0.8649031 0.5668334 0.0000000
1.0000000 0.5576862 0.0000000
1.0000000 0.5566528 0.0000000
1.0000000 0.5566528 0.0000000
0.0000000 0.7899060 0.0000000
0.0000000 0.7857063 0.0000000
0.1999519 0.7757877 0.0000000
0.4153693 0.7662215 0.0000000
0.6265177 0.7568447 0.0000000
0.8347306 0.7475984 0.0000000
1.0000000 0.7384512 0.0000000
1.0000000 0.7374178 0.0000000
1.0000000 0.7374178 0.0000000
0.0000000 0.9706710 0.0000000
0.0000000 0.9664714 0.0000000
0.1697794 0.9565528 0.0000000
0.3851968 0.9469865 0.0000000
0.5963452 0.9376098 0.0000000
0.8045580 0.9283634 0.0000000
1.0000000 0.9192163 0.0000000
1.0000000 0.9181828 0.0000000
1.0000000 0.9181828 0.0000000
0.0000000 1.0000000 0.0000000
0.0000000 1.0000000 0.0000000
0.1532404 1.0000000 0.0000000
0.3686578 1.0000000 0.0000000
0.5798061 1.0000000 0.0000000
0.7880191 1.0000000 0.0000000
0.9939971 1.0000000 0.0000000
1.0000000 1.0000000 0.0000000
1.0000000 1.0000000 0.0000000
0.0000000 1.0000000 0.0000000
0.0000000 1.0000000 0.0000000
0.1532404 1.0000000 0.0000000
0.3686578 1.0000000 0.0000000
0.5798061 1.0000000 0.0000000
0.7880191 1.0000000 0.0000000
0.9939971 1.0000000 0.0000000
1.0000000 1.0000000 0.0000000
1.0000000 1.0000000 0.0000000
0.0060473 0.0279824 0.2322977
0.1006151 0.0237828 0.2280981
0.3239658 0.0138642 0.2181795
0.5393832 0.0042979 0.2086132
0.7505316 0.0000000 0.1992364
0.9587445 0.0000000 0.1899901
1.0000000 0.0000000 0.1808429
1.0000000 0.0000000 0.1798095
1.0000000 0.0000000 0.1798095
0.0000128 0.0641354 0.2262632
0.0945806 0.0599358 0.2220636
0.3179313 0.0500172 0.2121450
0.5333487 0.0404509 0.2025787
0.7444971 0.0310741 0.1932019
0.9527100 0.0218278 0.1839556
1.0000000 0.0126806 0.1748084
1.0000000 0.0116472 0.1737750
1.0000000 0.0116472 0.1737750
0.0000000 0.2449004 0.1960907
0.0644081 0.2407008 0.1918911
0.2877588 0.2307822 0.1819725
0.5031762 0.2212159 0.1724062
0.7143246 0.2118392 0.1630294
0.9225374 0.2025928 0.1537831
1.0000000 0.1934457 0.1446359
1.0000000 0.1924122 0.1436025
1.0000000 0.1924122 0.1436025
0.0000000 0.4256654 0.1659182
0.0342356 0.4214658 0.1617186
0.2575863 0.4115472 0.1518000
0.4730037 0.4019809 0.1422337
0.6841521 0.3926041 0.1328569
0.8923650 0.3833578 0.1236106
1.0000000 0.3742107 0.1144634
1.0000000 0.3731772 0.1134300
1.0000000 0.3731772 0.1134300
0.0000000 0.6064304 0.1357457
0.0040631 0.6022308 0.1315461
0.2274138 0.5923122 0.1216274
0.4428312 0.5827459 0.1120611
0.6539795 0.5733691 0.1026844
0.8621925 0.5641227 0.0934380
1.0000000 0.5549756 0.0842909
1.0000000 0.5539422 0.0832575
1.0000000 0.5539422 0.0832575
0.0000000 0.7871953 0.1055732
0.0000000 0.7829958 0.1013736
0.1972413 0.7730771 0.0914550
0.4126587 0.7635108 0.0818887
0.6238071 0.7541341 0.0725119
0.8320200 0.7448877 0.0632656
1.0000000 0.7357406 0.0541185
1.0000000 0.7347072 0.0530850
1.0000000 0.7347072 0.0530850
0.0000000 0.9679604 0.0754007
0.0000000 0.9637608 0.0712011
0.1670688 0.9538422 0.0612825
0.3824862 0.9442759 0.0517161
0.5936345 0.9348992 0.0423394
0.8018475 0.9256528 0.0330930
1.0000000 0.9165057 0.0239459
1.0000000 0.9154722 0.0229125
1.0000000 0.9154722 0.0229125
0.0000000 1.0000000 0.0588617
0.0000000 1.0000000 0.0546620
0.1505297 1.0000000 0.0447434
0.3659472 1.0000000 0.0351772
0.5770956 1.0000000 0.0258004
0.7853085 1.0000000 0.0165541
0.9912865 1.0000000 0.0074069
1.0000000 1.0000000 0.0063735
1.0000000 1.0000000 0.0063735
0.0000000 1.0000000 0.0588617
0.0000000 1.0000000 0.0546620
0.1505297 1.0000000 0.0447434
0.3659472 1.0000000 0.0351772
0.5770956 1.0000000 0.0258004
0.7853085 1.0000000 0.0165541
0.9912865 1.0000000 0.0074069
1.0000000 1.0000000 0.0063735
1.0000000 1.0000000 0.0063735
0.0032122 0.0251472 0.4258025
0.0977800 0.0209476 0.4216029
0.3211307 0.0110290 0.4116843
0.5365480 0.0014627 0.4021180
0.7476964 0.0000000 0.3927413
0.9559093 0.0000000 0.3834949
1.0000000 0.0000000 0.3743478
1.0000000 0.0000000 0.3733144
1.0000000 0.0000000 0.3733144
0.0000000 0.0613002 0.4197680
0.0917455 0.0571006 0.4155684
0.3150962 0.0471820 0.4056498
0.5305135 0.0376157 0.3960835
0.7416619 0.0282390 0.3867068
0.9498748 0.0189926 0.3774604
1.0000000 0.0098455 0.3683133
1.0000000 0.0088120 0.3672798
1.0000000 0.0088120 0.3672798
0.0000000 0.2420652 0.3895955
0.0615730 0.2378656 0.3853959
0.2849237 0.2279470 0.3754773
0.5003411 0.2183807 0.3659110
0.7114894 0.2090040 0.3565343
0.9197023 0.1997576 0.3472879
1.0000000 0.1906105 0.3381408
1.0000000 0.1895770 0.3371073
1.0000000 0.1895770 0.3371073
0.0000000 0.4228302 0.3594230
0.0314004 0.4186306 0.3552234
0.2547512 0.4087120 0.3453048
0.4701686 0.3991457 0.3357385
0.6813169 0.3897690 0.3263618
0.8895298 0.3805226 0.3171154
1.0000000 0.3713755 0.3079683
1.0000000 0.3703420 0.3069348
1.0000000 0.3703420 0.3069348
0.0000000 0.6035952 0.3292505
0.0012279 0.5993956 0.3250509
0.2245787 0.5894770 0.3151323
0.4399961 0.5799107 0.3055660
0.6511444 0.5705340 0.2961893
0.8593574 0.5612876 0.2869429
1.0000000 0.5521405 0.2777958
1.0000000 0.5511070 0.2767624
1.0000000 0.5511070 0.2767624
0.0000000 0.7843602 0.2990780
0.0000000 0.7801606 0.2948784
0.1944062 0.7702420 0.2849598
0.4098236 0.7606757 0.2753935
0.6209719 0.7512990 0.2660168
0.8291848 0.7420526 0.2567704
1.0000000 0.7329055 0.2476233
1.0000000 0.7318720 0.2465898
1.0000000 0.7318720 0.2465898
0.0000000 0.9651253 0.2689055
0.0000000 0.9609256 0.2647059
0.1642337 0.9510071 0.2547873
0.3796511 0.9414408 0.2452210
0.5907994 0.9320640 0.2358443
0.7990123 0.9228176 0.2265979
1.0000000 0.9136705 0.2174508
1.0000000 0.9126371 0.2164174
1.0000000 0.9126371 0.2164174
0.0000000 1.0000000 0.2523665
0.0000000 1.0000000 0.2481669
0.1476947 1.0000000 0.2382483
0.3631121 1.0000000 0.2286820
0.5742604 1.0000000 0.2193053
0.7824733 1.0000000 0.2100589
0.9884514 1.0000000 0.2009118
1.0000000 1.0000000 0.1998783
1.0000000 1.0000000 0.1998783
0.0000000 1.0000000 0.2523665
0.0000000 1.0000000 0.2481669
0.1476947 1.0000000 0.2382483
0.3631121 1.0000000 0.2286820
0.5742604 1.0000000 0.2193053
0.7824733 1.0000000 0.2100589
0.9884514 1.0000000 0.2009118
1.0000000 1.0000000 0.1998783
1.0000000 1.0000000 0.1998783
0.0003098 0.0222448 0.6238986
0.0948775 0.0180452 0.6196990
0.3182282 0.0081266 0.6097804
0.5336456 0.0000000 0.6002141
0.7447940 0.0000000 0.5908374
0.9530069 0.0000000 0.5815910
1.0000000 0.0000000 0.5724438
1.0000000 0.0000000 0.5714104
1.0000000 0.0000000 0.5714104
0.0000000 0.0583978 0.6178641
0.0888430 0.0541982 0.6136644
0.3121938 0.0442796 0.6037459
0.5276111 0.0347133 0.5941796
0.7387595 0.0253366 0.5848029
0.9469724 0.0160902 0.5755565
1.0000000 0.0069431 0.5664093
1.0000000 0.0059096 0.5653759
1.0000000 0.0059096 0.5653759
0.0000000 0.2391628 0.5876916
0.0586706 0.2349632 0.5834920
0.2820213 0.2250446 0.5735734
0.4974386 0.2154783 0.5640071
0.7085870 0.2061016 0.5546303
0.9167999 0.1968552 0.5453840
1.0000000 0.1877081 0.5362369
1.0000000 0.1866746 0.5352034
1.0000000 0.1866746 0.5352034
0.0000000 0.4199278 0.5575191
0.0284980 0.4157282 0.5533195
0.2518488 0.4058096 0.5434009
0.4672661 0.3962433 0.5338346
0.6784145 0.3868666 0.5244579
0.8866274 0.3776202 0.5152115
1.0000000 0.3684731 0.5060644
1.0000000 0.3674396 0.5050309
1.0000000 0.3674396 0.5050309
0.0000000 0.6006928 0.5273466
0.0000000 0.5964932 0.5231470
0.2216763 0.5865746 0.5132284
0.4370936 0.5770083 0.5036621
0.6482420 0.5676315 0.4942853
0.8564549 0.5583852 0.4850390
1.0000000 0.5492381 0.4758919
1.0000000 0.5482046 0.4748584
1.0000000 0.5482046 0.4748584
0.0000000 0.7814578 0.4971741
0.0000000 0.7772582 0.4929745
0.1915038 0.7673396 0.4830559
0.4069211 0.7577733 0.4734896
0.6180695 0.7483965 0.4641129
0.8262824 0.7391502 0.4548665
1.0000000 0.7300031 0.4457194
1.0000000 0.7289696 0.4446859
1.0000000 0.7289696 0.4446859
0.0000000 0.9622228 0.4670016
0.0000000 0.9580233 0.4628020
0.1613312 0.9481046 0.4528834
0.3767487 0.9385383 0.4433171
0.5878970 0.9291616 0.4339404
0.7961099 0.9199152 0.4246940
1.0000000 0.9107681 0.4155469
1.0000000 0.9097347 0.4145134
1.0000000 0.9097347 0.4145134
0.0000000 1.0000000 0.4504626
0.0000000 1.0000000 0.4462630
0.1447923 1.0000000 0.4363444
0.3602096 1.0000000 0.4267781
0.5713580 1.0000000 0.4174014
0.7795709 1.0000000 0.4081550
0.9855490 1.0000000 0.3990079
1.0000000 1.0000000 0.3979744
1.0000000 1.0000000 0.3979744
0.0000000 1.0000000 0.4504626
0.0000000 1.0000000 0.4462630
0.1447923 1.0000000 0.4363444
0.3602096 1.0000000 0.4267781
0.5713580 1.0000000 0.4174014
0.7795709 1.0000000 0.4081550
0.9855490 1.0000000 0.3990079
1.0000000 1.0000000 0.3979744
1.0000000 1.0000000 0.3979744
0.0000000 0.0192953 0.8252113
0.0919280 0.0150957 0.8210117
0.3152787 0.0051771 0.8110931
0.5306961 0.0000000 0.8015268
0.7418444 0.0000000 0.7921500
0.9500573 0.0000000 0.7829037
1.0000000 0.0000000 0.7737565
1.0000000 0.0000000 0.7727231
1.0000000 0.0000000 0.7727231
0.0000000 0.0554482 0.8191768
0.0858935 0.0512487 0.8149772
0.3092442 0.0413301 0.8050585
0.5246616 0.0317637 0.7954922
0.7358099 0.0223870 0.7861155
0.9440229 0.0131406 0.7768692
1.0000000 0.0039935 0.7677220
1.0000000 0.0029601 0.7666886
1.0000000 0.0029601 0.7666886
0.0000000 0.2362133 0.7890043
0.0557210 0.2320137 0.7848047
0.2790717 0.2220951 0.7748861
0.4944891 0.2125288 0.7653198
0.7056375 0.2031520 0.7559431
0.9138504 0.1939057 0.7466967
1.0000000 0.1847585 0.7375495
1.0000000 0.1837251 0.7365161
1.0000000 0.1837251 0.7365161
0.0000000 0.4169782 0.7588317
0.0255485 0.4127787 0.7546322
0.2488992 0.4028600 0.7447135
0.4643166 0.3932937 0.7351472
0.6754649 0.3839170 0.7257705
0.8836778 0.3746707 0.7165241
1.0000000 0.3655235 0.7073770
1.0000000 0.3644901 0.7063436
1.0000000 0.3644901 0.7063436
0.0000000 0.5977433 0.7286593
0.0000000 0.5935436 0.7244596
0.2187267 0.5836251 0.7145411
0.4341441 0.5740588 0.7049748
0.6452925 0.5646820 0.6955980
0.8535054 0.5554357 0.6863517
1.0000000 0.5462885 0.6772045
1.0000000 0.5452551 0.6761711
1.0000000 0.5452551 0.6761711
0.0000000 0.7785082 0.6984867
0.0000000 0.7743086 0.6942872
0.1885542 0.7643900 0.6843686
0.4039716 0.7548237 0.6748022
0.6151199 0.7454470 0.6654255
0.8233328 0.7362006 0.6561792
1.0000000 0.7270535 0.6470320
1.0000000 0.7260200 0.6459986
1.0000000 0.7260200 0.6459986
0.0000000 0.9592733 0.6683142
0.0000000 0.9550737 0.6641147
0.1583817 0.9451551 0.6541960
0.3737991 0.9355888 0.6446297
0.5849475 0.9262121 0.6352530
0.7931603 0.9169657 0.6260067
0.9991384 0.9078186 0.6168596
1.0000000 0.9067851 0.6158261
1.0000000 0.9067851 0.6158261
0.0000000 1.0000000 0.6517752
0.0000000 1.0000000 0.6475757
0.1418427 1.0000000 0.6376570
0.3572601 1.0000000 0.6280907
0.5684084 1.0000000 0.6187140
0.7766213 1.0000000 0.6094676
0.9825994 1.0000000 0.6003205
1.0000000 1.0000000 0.5992871
1.0000000 1.0000000 0.5992871
0.0000000 1.0000000 0.6517752
0.0000000 1.0000000 0.6475757
0.1418427 1.0000000 0.6376570
0.3572601 1.0000000 0.6280907
0.5684084 1.0000000 0.6187140
0.7766213 1.0000000 0.6094676
0.9825994 1.0000000 0.6003205
1.0000000 1.0000000 0.5992871
1.0000000 1.0000000 0.5992871
0.0000000 0.0163092 1.0000000
0.0889420 0.0121096 1.0000000
0.3122927 0.0021910 1.0000000
0.5277101 0.0000000 1.0000000
0.7388585 0.0000000 0.9959537
0.9470713 0.0000000 0.9867072
1.0000000 0.0000000 0.9775601
1.0000000 0.0000000 0.9765266
1.0000000 0.0000000 0.9765266
0.0000000 0.0524622 1.0000000
0.0829075 0.0482626 1.0000000
0.3062582 0.0383440 1.0000000
0.5216756 0.0287777 0.9992957
0.7328239 0.0194010 0.9899191
0.9410368 0.0101546 0.9806727
1.0000000 0.0010075 0.9715255
1.0000000 0.0000000 0.9704921
1.0000000 0.0000000 0.9704921
0.0000000 0.2332272 0.9928078
0.0527350 0.2290276 0.9886082
0.2760857 0.2191090 0.9786896
0.4915031 0.2095427 0.9691233
0.7026514 0.2001660 0.9597466
0.9108643 0.1909196 0.9505002
1.0000000 0.1817725 0.9413531
1.0000000 0.1807390 0.9403196
1.0000000 0.1807390 0.9403196
0.0000000 0.4139922 0.9626353
0.0225624 0.4097926 0.9584357
0.2459132 0.3998740 0.9485171
0.4613305 0.3903077 0.9389508
0.6724789 0.3809310 0.9295741
0.8806918 0.3716846 0.9203277
1.0000000 0.3625375 0.9111806
1.0000000 0.3615040 0.9101471
1.0000000 0.3615040 0.9101471
0.0000000 0.5947572 0.9324628
0.0000000 0.5905576 0.9282632
0.2157407 0.5806390 0.9183446
0.4311581 0.5710727 0.9087783
0.6423064 0.5616959 0.8994015
0.8505193 0.5524496 0.8901552
1.0000000 0.5433025 0.8810081
1.0000000 0.5422690 0.8799746
1.0000000 0.5422690 0.8799746
0.0000000 0.7755222 0.9022903
0.0000000 0.7713226 0.8980907
0.1855682 0.7614040 0.8881721
0.4009856 0.7518377 0.8786058
0.6121339 0.7424610 0.8692291
0.8203468 0.7332146 0.8599827
1.0000000 0.7240674 0.8508356
1.0000000 0.7230340 0.8498021
1.0000000 0.7230340 0.8498021
0.0000000 0.9562873 0.8721178
0.0000000 0.9520876 0.8679182
0.1553957 0.9421691 0.8579996
0.3708130 0.9326028 0.8484333
0.5819614 0.9232260 0.8390566
0.7901743 0.9139796 0.8298102
0.9961523 0.9048325 0.8206631
1.0000000 0.9037991 0.8196296
1.0000000 0.9037991 0.8196296
0.0000000 1.0000000 0.8555788
0.0000000 1.0000000 0.8513792
0.1388566 1.0000000 0.8414606
0.3542740 1.0000000 0.8318943
0.5654224 1.0000000 0.8225176
0.7736353 1.0000000 0.8132712
0.9796134 1.0000000 0.8041241
1.0000000 1.0000000 0.8030906
1.0000000 1.0000000 0.8030906
0.0000000 1.0000000 0.8555788
0.0000000 1.0000000 0.8513792
0.1388566 1.0000000 0.8414606
0.3542740 1.0000000 0.8318943
0.5654224 1.0000000 0.8225176
0.7736353 1.0000000 0.8132712
0.9796134 1.0000000 0.8041241
1.0000000 1.0000000 0.8030906
1.0000000 1.0000000 0.8030906
0.0000000 0.0134242 1.0000000
0.0860569 0.0092246 1.0000000
0.3094077 0.0000000 1.0000000
0.5248250 0.0000000 1.0000000
0.7359734 0.0000000 1.0000000
0.9441863 0.0000000 1.0000000
1.0000000 0.0000000 1.0000000
1.0000000 0.0000000 1.0000000
1.0000000 0.0000000 1.0000000
0.0000000 0.0495772 1.0000000
0.0800224 0.0453776 1.0000000
0.3033731 0.0354590 1.0000000
0.5187905 0.0258927 1.0000000
0.7299389 0.0165159 1.0000000
0.9381517 0.0072696 1.0000000
1.0000000 0.0000000 1.0000000
1.0000000 0.0000000 1.0000000
1.0000000 0.0000000 1.0000000
0.0000000 0.2303422 1.0000000
0.0498499 0.2261426 1.0000000
0.2732006 0.2162240 1.0000000
0.4886180 0.2066577 1.0000000
0.6997664 0.1972810 1.0000000
0.9079792 0.1880346 1.0000000
1.0000000 0.1788875 1.0000000
1.0000000 0.1778540 1.0000000
1.0000000 0.1778540 1.0000000
0.0000000 0.4111072 1.0000000
0.0196774 0.4069076 1.0000000
0.2430281 0.3969890 1.0000000
0.4584455 0.3874227 1.0000000
0.6695939 0.3780459 1.0000000
0.8778068 0.3687996 1.0000000
1.0000000 0.3596525 1.0000000
1.0000000 0.3586190 1.0000000
1.0000000 0.3586190 1.0000000
0.0000000 0.5918722 1.0000000
0.0000000 0.5876726 1.0000000
0.2128556 0.5777540 1.0000000
0.4282730 0.5681877 1.0000000
0.6394213 0.5588109 1.0000000
0.8476343 0.5495646 1.0000000
1.0000000 0.5404174 1.0000000
1.0000000 0.5393840 1.0000000
1.0000000 0.5393840 1.0000000
0.0000000 0.7726371 1.0000000
0.0000000 0.7684376 1.0000000
0.1826831 0.7585189 1.0000000
0.3981005 0.7489526 1.0000000
0.6092489 0.7395759 1.0000000
0.8174618 0.7303296 1.0000000
1.0000000 0.7211825 1.0000000
1.0000000 0.7201490 1.0000000
1.0000000 0.7201490 1.0000000
0.0000000 0.9534022 1.0000000
0.0000000 0.9492026 1.0000000
0.1525107 0.9392840 1.0000000
0.3679280 0.9297177 1.0000000
0.5790763 0.9203410 1.0000000
0.7872893 0.9110946 1.0000000
0.9932673 0.9019475 1.0000000
1.0000000 0.9009140 1.0000000
1.0000000 0.9009140 1.0000000
0.0000000 1.0000000 1.0000000
0.0000000 1.0000000 1.0000000
0.1359717 1.0000000 1.0000000
0.3513891 1.0000000 1.0000000
0.5625374 1.0000000 1.0000000
0.7707503 1.0000000 1.0000000
0.9767283 1.0000000 1.0000000
1.0000000 1.0000000 1.0000000
1.0000000 1.0000000 1.0000000
0.0000000 1.0000000 1.0000000
0.0000000 1.0000000 1.0000000
0.1359717 1.0000000 1.0000000
0.3513891 1.0000000 1.0000000
0.5625374 1.0000000 1.0000000
0.7707503 1.0000000 1.0000000
0.9767283 1.0000000 1.0000000
1.0000000 1.0000000 1.0000000
1.0000000 1.0000000 1.0000000
0.0000000 0.0134242 1.0000000
0.0860569 0.0092246 1.0000000
0.3094077 0.0000000 1.0000000
0.5248250 0.0000000 1.0000000
0.7359734 0.0000000 1.0000000
0.9441863 0.0000000 1.0000000
1.0000000 0.0000000 1.0000000
1.0000000 0.0000000 1.0000000
1.0000000 0.0000000 1.0000000
0.0000000 0.0495772 1.0000000
0.0800224 0.0453776 1.0000000
0.3033731 0.0354590 1.0000000
0.5187905 0.0258927 1.0000000
0.7299389 0.0165159 1.0000000
0.9381517 0.0072696 1.0000000
1.0000000 0.0000000 1.0000000
1.0000000 0.0000000 1.0000000
1.0000000 0.0000000 1.0000000
0.0000000 0.2303422 1.0000000
0.0498499 0.2261426 1.0000000
0.2732006 0.2162240 1.0000000
0.4886180 0.2066577 1.0000000
0.6997664 0.1972810 1.0000000
0.9079792 0.1880346 1.0000000
1.0000000 0.1788875 1.0000000
1.0000000 0.1778540 1.0000000
1.0000000 0.1778540 1.0000000
0.0000000 0.4111072 1.0000000
0.0196774 0.4069076 1.0000000
0.2430281 0.3969890 1.0000000
0.4584455 0.3874227 1.0000000
0.6695939 0.3780459 1.0000000
0.8778068 0.3687996 1.0000000
1.0000000 0.3596525 1.0000000
1.0000000 0.3586190 1.0000000
1.0000000 0.3586190 1.0000000
0.0000000 0.5918722 1.0000000
0.0000000 0.5876726 1.0000000
0.2128556 0.5777540 1.0000000
0.4282730 0.5681877 1.0000000
0.6394213 0.5588109 1.0000000
0.8476343 0.5495646 1.0000000
1.0000000 0.5404174 1.0000000
1.0000000 0.5393840 1.0000000
1.0000000 0.5393840 1.0000000
0.0000000 0.7726371 1.0000000
0.0000000 0.7684376 1.0000000
0.1826831 0.7585189 1.0000000
0.3981005 0.7489526 1.0000000
0.6092489 0.7395759 1.0000000
0.8174618 0.7303296 1.0000000
1.0000000 0.7211825 1.0000000
1.0000000 0.7201490 1.0000000
1.0000000 0.7201490 1.0000000
0.0000000 0.9534022 1.0000000
0.0000000 0.9492026 1.0000000
0.1525107 0.9392840 1.0000000
0.3679280 0.9297177 1.0000000
0.5790763 0.9203410 1.0000000
0.7872893 0.9110946 1.0000000
0.9932673 0.9019475 1.0000000
1.0000000 0.9009140 1.0000000
1.0000000 0.9009140 1.0000000
0.0000000 1.0000000 1.0000000
0.0000000 1.0000000 1.0000000
0.1359717 1.0000000 1.0000000
0.3513891 1.0000000 1.0000000
0.5625374 1.0000000 1.0000000
0.7707503 1.0000000 1.0000000
0.9767283 1.0000000 1.0000000
1.0000000 1.0000000 1.0000000
1.0000000 1.0000000 1.0000000
0.0000000 1.0000000 1.0000000
0.0000000 1.0000000 1.0000000
0.1359717 1.0000000 1.0000000
0.3513891 1.0000000 1.0000000
0.5625374 1.0000000 1.0000000
0.7707503 1.0000000 1.0000000
0.9767283 1.0000000 1.0000000
1.0000000 1.0000000 1.0000000
1.0000000 1.0000000 1.0000000
