luts/lume_20260429_195903.cube
TITLE "Lume Grade"
LUT_3D_SIZE 5
0.0001764 0.0001764 0.0140129
0.0747439 0.0028728 0.0167093
0.3720391 0.0136233 0.0274598
0.7159836 0.0260607 0.0398972
0.8820663 0.0320664 0.0459029
0.0129415 0.1140822 0.0267781
0.0875090 0.1167787 0.0294745
0.3848043 0.1275292 0.0402250
0.7287487 0.1399665 0.0526623
0.8948315 0.1459722 0.0586680
0.0481994 0.4286952 0.0620359
0.1227669 0.4313916 0.0647324
0.4200622 0.4421421 0.0754828
0.7640066 0.4545795 0.0879202
0.9300894 0.4605852 0.0939259
0.0883265 0.7867570 0.1021630
0.1628940 0.7894534 0.1048595
0.4601893 0.8002039 0.1156099
0.8041337 0.8126413 0.1280473
0.9702165 0.8186470 0.1340530
0.1074563 0.9574563 0.1212928
0.1820238 0.9601527 0.1239893
0.4793191 0.9709032 0.1347398
0.8232636 0.9833406 0.1471772
0.9893463 0.9893463 0.1531829
0.0021287 0.0021287 0.1691912
0.0766961 0.0048251 0.1718876
0.3739914 0.0155756 0.1826381
0.7179359 0.0280129 0.1950754
0.8840186 0.0340187 0.2010812
0.0148938 0.1160345 0.1819563
0.0894613 0.1187310 0.1846527
0.3867566 0.1294814 0.1954032
0.7307010 0.1419188 0.2078406
0.8967838 0.1479245 0.2138463
0.0501517 0.4306475 0.2172142
0.1247192 0.4333439 0.2199106
0.4220145 0.4440944 0.2306611
0.7659589 0.4565318 0.2430985
0.9320416 0.4625375 0.2491042
0.0902787 0.7887093 0.2573413
0.1648463 0.7914057 0.2600377
0.4621416 0.8021562 0.2707882
0.8060860 0.8145936 0.2832256
0.9721687 0.8205993 0.2892313
0.1094086 0.9594086 0.2764711
0.1839761 0.9621050 0.2791676
0.4812714 0.9728555 0.2899181
0.8252159 0.9852929 0.3023555
0.9912986 0.9912986 0.3083611
0.0056418 0.0056418 0.4484357
0.0802093 0.0083382 0.4511321
0.3775046 0.0190887 0.4618827
0.7214490 0.0315261 0.4743200
0.8875318 0.0375318 0.4803257
0.0184069 0.1195477 0.4612009
0.0929744 0.1222441 0.4638973
0.3902697 0.1329946 0.4746478
0.7342142 0.1454320 0.4870852
0.9002969 0.1514377 0.4930909
0.0536648 0.4341606 0.4964588
0.1282323 0.4368570 0.4991552
0.4255276 0.4476075 0.5099057
0.7694721 0.4600449 0.5223430
0.9355547 0.4660506 0.5283487
0.0937919 0.7922224 0.5365859
0.1683594 0.7949188 0.5392823
0.4656547 0.8056693 0.5500328
0.8095992 0.8181067 0.5624701
0.9756819 0.8241124 0.5684758
0.1129218 0.9629217 0.5557157
0.1874893 0.9656181 0.5584121
0.4847845 0.9763687 0.5691626
0.8287290 0.9888060 0.5816000
0.9948117 0.9948117 0.5876057
0.0092764 0.0092764 0.7373374
0.0838439 0.0119729 0.7400338
0.3811392 0.0227234 0.7507843
0.7250836 0.0351607 0.7632217
0.8911663 0.0411664 0.7692274
0.0220416 0.1231823 0.7501025
0.0966091 0.1258787 0.7527990
0.3939044 0.1366292 0.7635494
0.7378488 0.1490666 0.7759868
0.9039315 0.1550723 0.7819926
0.0572995 0.4377953 0.7853605
0.1318670 0.4404917 0.7880569
0.4291622 0.4512422 0.7988073
0.7731067 0.4636796 0.8112447
0.9391894 0.4696853 0.8172504
0.0974265 0.7958571 0.8254875
0.1719941 0.7985535 0.8281839
0.4692894 0.8093040 0.8389344
0.8132338 0.8217413 0.8513718
0.9793165 0.8277470 0.8573775
0.1165564 0.9665564 0.8446174
0.1911239 0.9692528 0.8473138
0.4884192 0.9800033 0.8580643
0.8323637 0.9924406 0.8705016
0.9984463 0.9984463 0.8765073
0.0108301 0.0108301 0.8608300
0.0853976 0.0135265 0.8635265
0.3826928 0.0242770 0.8742769
0.7266374 0.0367144 0.8867143
0.8927200 0.0427201 0.8927200
0.0235952 0.1247360 0.8735952
0.0981627 0.1274324 0.8762916
0.3954580 0.1381829 0.8870422
0.7394024 0.1506202 0.8994794
0.9054852 0.1566259 0.9054852
0.0588531 0.4393489 0.9088531
0.1334206 0.4420453 0.9115494
0.4307159 0.4527958 0.9223000
0.7746603 0.4652332 0.9347373
0.9407431 0.4712389 0.9407431
0.0989802 0.7974107 0.9489802
0.1735477 0.8001071 0.9516766
0.4708430 0.8108577 0.9624271
0.8147874 0.8232950 0.9748644
0.9808701 0.8293007 0.9808701
0.1181101 0.9681100 0.9681100
0.1926776 0.9708064 0.9708064
0.4899728 0.9815570 0.9815570
0.8339173 0.9939943 0.9939943
1.0000000 1.0000000 1.0000000
