luts/lume_20260429_195807.cube
TITLE "Lume Grade"
LUT_3D_SIZE 33
0.0087683 0.0307033 0.0465865
0.0087683 0.0307033 0.0465865
0.0087683 0.0307033 0.0465865
0.0446547 0.0291097 0.0449929
0.1033361 0.0265037 0.0423869
0.1604004 0.0239696 0.0398528
0.2164829 0.0214791 0.0373623
0.2718599 0.0190199 0.0349031
0.3266868 0.0165851 0.0324683
0.3810637 0.0141703 0.0300536
0.4350600 0.0117725 0.0276557
0.4887271 0.0093892 0.0252724
0.5421041 0.0070188 0.0229020
0.5952222 0.0046600 0.0205432
0.6481063 0.0023115 0.0181947
0.7007773 0.0000000 0.0158556
0.7532525 0.0000000 0.0135253
0.8055471 0.0000000 0.0112030
0.8576735 0.0000000 0.0088881
0.9096430 0.0000000 0.0065803
0.9614654 0.0000000 0.0042789
1.0000000 0.0000000 0.0019837
1.0000000 0.0000000 0.0000000
1.0000000 0.0000000 0.0000000
1.0000000 0.0000000 0.0000000
1.0000000 0.0000000 0.0000000
1.0000000 0.0000000 0.0000000
1.0000000 0.0000000 0.0000000
1.0000000 0.0000000 0.0000000
1.0000000 0.0000000 0.0000000
1.0000000 0.0000000 0.0000000
1.0000000 0.0000000 0.0000000
1.0000000 0.0000000 0.0000000
0.0087683 0.0307033 0.0465865
0.0087683 0.0307033 0.0465865
0.0087683 0.0307033 0.0465865
0.0446547 0.0291097 0.0449929
0.1033361 0.0265037 0.0423869
0.1604004 0.0239696 0.0398528
0.2164829 0.0214791 0.0373623
0.2718599 0.0190199 0.0349031
0.3266868 0.0165851 0.0324683
0.3810637 0.0141703 0.0300536
0.4350600 0.0117725 0.0276557
0.4887271 0.0093892 0.0252724
0.5421041 0.0070188 0.0229020
0.5952222 0.0046600 0.0205432
0.6481063 0.0023115 0.0181947
0.7007773 0.0000000 0.0158556
0.7532525 0.0000000 0.0135253
0.8055471 0.0000000 0.0112030
0.8576735 0.0000000 0.0088881
0.9096430 0.0000000 0.0065803
0.9614654 0.0000000 0.0042789
1.0000000 0.0000000 0.0019837
1.0000000 0.0000000 0.0000000
1.0000000 0.0000000 0.0000000
1.0000000 0.0000000 0.0000000
1.0000000 0.0000000 0.0000000
1.0000000 0.0000000 0.0000000
1.0000000 0.0000000 0.0000000
1.0000000 0.0000000 0.0000000
1.0000000 0.0000000 0.0000000
1.0000000 0.0000000 0.0000000
1.0000000 0.0000000 0.0000000
1.0000000 0.0000000 0.0000000
0.0087683 0.0307033 0.0465865
0.0087683 0.0307033 0.0465865
0.0087683 0.0307033 0.0465865
0.0446547 0.0291097 0.0449929
0.1033361 0.0265037 0.0423869
0.1604004 0.0239696 0.0398528
0.2164829 0.0214791 0.0373623
0.2718599 0.0190199 0.0349031
0.3266868 0.0165851 0.0324683
0.3810637 0.0141703 0.0300536
0.4350600 0.0117725 0.0276557
0.4887271 0.0093892 0.0252724
0.5421041 0.0070188 0.0229020
0.5952222 0.0046600 0.0205432
0.6481063 0.0023115 0.0181947
0.7007773 0.0000000 0.0158556
0.7532525 0.0000000 0.0135253
0.8055471 0.0000000 0.0112030
0.8576735 0.0000000 0.0088881
0.9096430 0.0000000 0.0065803
0.9614654 0.0000000 0.0042789
1.0000000 0.0000000 0.0019837
1.0000000 0.0000000 0.0000000
1.0000000 0.0000000 0.0000000
1.0000000 0.0000000 0.0000000
1.0000000 0.0000000 0.0000000
1.0000000 0.0000000 0.0000000
1.0000000 0.0000000 0.0000000
1.0000000 0.0000000 0.0000000
1.0000000 0.0000000 0.0000000
1.0000000 0.0000000 0.0000000
1.0000000 0.0000000 0.0000000
1.0000000 0.0000000 0.0000000
0.0087683 0.0307033 0.0465865
0.0087683 0.0307033 0.0465865
0.0087683 0.0307033 0.0465865
0.0446547 0.0291097 0.0449929
0.1033361 0.0265037 0.0423869
0.1604004 0.0239696 0.0398528
0.2164829 0.0214791 0.0373623
0.2718599 0.0190199 0.0349031
0.3266868 0.0165851 0.0324683
0.3810637 0.0141703 0.0300536
0.4350600 0.0117725 0.0276557
0.4887271 0.0093892 0.0252724
0.5421041 0.0070188 0.0229020
0.5952222 0.0046600 0.0205432
0.6481063 0.0023115 0.0181947
0.7007773 0.0000000 0.0158556
0.7532525 0.0000000 0.0135253
0.8055471 0.0000000 0.0112030
0.8576735 0.0000000 0.0088881
0.9096430 0.0000000 0.0065803
0.9614654 0.0000000 0.0042789
1.0000000 0.0000000 0.0019837
1.0000000 0.0000000 0.0000000
1.0000000 0.0000000 0.0000000
1.0000000 0.0000000 0.0000000
1.0000000 0.0000000 0.0000000
1.0000000 0.0000000 0.0000000
1.0000000 0.0000000 0.0000000
1.0000000 0.0000000 0.0000000
1.0000000 0.0000000 0.0000000
1.0000000 0.0000000 0.0000000
1.0000000 0.0000000 0.0000000
1.0000000 0.0000000 0.0000000
0.0027338 0.0668563 0.0405520
0.0027338 0.0668563 0.0405520
0.0027338 0.0668563 0.0405520
0.0386202 0.0652627 0.0389584
0.0973016 0.0626567 0.0363524
0.1543659 0.0601226 0.0338183
0.2104484 0.0576321 0.0313278
0.2658254 0.0551729 0.0288686
0.3206523 0.0527381 0.0264338
0.3750292 0.0503233 0.0240191
0.4290255 0.0479255 0.0216212
0.4826926 0.0455422 0.0192379
0.5360697 0.0431718 0.0168675
0.5891877 0.0408129 0.0145086
0.6420718 0.0384645 0.0121602
0.6947428 0.0361254 0.0098211
0.7472180 0.0337951 0.0074908
0.7995126 0.0314728 0.0051685
0.8516390 0.0291579 0.0028537
0.9036085 0.0268501 0.0005458
0.9554309 0.0245487 0.0000000
1.0000000 0.0222535 0.0000000
1.0000000 0.0199642 0.0000000
1.0000000 0.0176803 0.0000000
1.0000000 0.0154016 0.0000000
1.0000000 0.0143681 0.0000000
1.0000000 0.0143681 0.0000000
1.0000000 0.0143681 0.0000000
1.0000000 0.0143681 0.0000000
1.0000000 0.0143681 0.0000000
1.0000000 0.0143681 0.0000000
1.0000000 0.0143681 0.0000000
1.0000000 0.0143681 0.0000000
0.0000000 0.1120476 0.0330089
0.0000000 0.1120476 0.0330089
0.0000000 0.1120476 0.0330089
0.0310770 0.1104539 0.0314153
0.0897584 0.1078480 0.0288093
0.1468228 0.1053139 0.0262752
0.2029053 0.1028233 0.0237847
0.2582822 0.1003641 0.0213255
0.3131092 0.0979294 0.0188907
0.3674861 0.0955146 0.0164759
0.4214824 0.0931167 0.0140781
0.4751495 0.0907335 0.0116948
0.5285265 0.0883631 0.0093244
0.5816446 0.0860042 0.0069655
0.6345286 0.0836557 0.0046171
0.6871997 0.0813167 0.0022780
0.7396749 0.0789863 0.0000000
0.7919695 0.0766640 0.0000000
0.8440958 0.0743492 0.0000000
0.8960654 0.0720413 0.0000000
0.9478879 0.0697400 0.0000000
0.9995717 0.0674448 0.0000000
1.0000000 0.0651554 0.0000000
1.0000000 0.0628715 0.0000000
1.0000000 0.0605929 0.0000000
1.0000000 0.0595594 0.0000000
1.0000000 0.0595594 0.0000000
1.0000000 0.0595594 0.0000000
1.0000000 0.0595594 0.0000000
1.0000000 0.0595594 0.0000000
1.0000000 0.0595594 0.0000000
1.0000000 0.0595594 0.0000000
1.0000000 0.0595594 0.0000000
0.0000000 0.1572388 0.0254658
0.0000000 0.1572388 0.0254658
0.0000000 0.1572388 0.0254658
0.0235339 0.1556452 0.0238721
0.0822153 0.1530392 0.0212662
0.1392797 0.1505051 0.0187321
0.1953622 0.1480146 0.0162416
0.2507391 0.1455554 0.0137824
0.3055660 0.1431206 0.0113476
0.3599429 0.1407059 0.0089328
0.4139393 0.1383080 0.0065349
0.4676064 0.1359247 0.0041517
0.5209835 0.1335543 0.0017813
0.5741014 0.1311955 0.0000000
0.6269855 0.1288470 0.0000000
0.6796565 0.1265079 0.0000000
0.7321318 0.1241776 0.0000000
0.7844263 0.1218553 0.0000000
0.8365527 0.1195405 0.0000000
0.8885223 0.1172326 0.0000000
0.9403447 0.1149312 0.0000000
0.9920286 0.1126360 0.0000000
1.0000000 0.1103467 0.0000000
1.0000000 0.1080628 0.0000000
1.0000000 0.1057841 0.0000000
1.0000000 0.1047507 0.0000000
1.0000000 0.1047507 0.0000000
1.0000000 0.1047507 0.0000000
1.0000000 0.1047507 0.0000000
1.0000000 0.1047507 0.0000000
1.0000000 0.1047507 0.0000000
1.0000000 0.1047507 0.0000000
1.0000000 0.1047507 0.0000000
0.0000000 0.2024301 0.0179227
0.0000000 0.2024301 0.0179227
0.0000000 0.2024301 0.0179227
0.0159908 0.2008364 0.0163290
0.0746722 0.1982305 0.0137231
0.1317365 0.1956964 0.0111890
0.1878191 0.1932058 0.0086984
0.2431960 0.1907467 0.0062392
0.2980229 0.1883119 0.0038045
0.3523998 0.1858971 0.0013897
0.4063962 0.1834992 0.0000000
0.4600632 0.1811160 0.0000000
0.5134403 0.1787456 0.0000000
0.5665584 0.1763867 0.0000000
0.6194424 0.1740382 0.0000000
0.6721134 0.1716992 0.0000000
0.7245886 0.1693688 0.0000000
0.7768832 0.1670465 0.0000000
0.8290096 0.1647317 0.0000000
0.8809791 0.1624238 0.0000000
0.9328015 0.1601225 0.0000000
0.9844854 0.1578273 0.0000000
1.0000000 0.1555379 0.0000000
1.0000000 0.1532540 0.0000000
1.0000000 0.1509754 0.0000000
1.0000000 0.1499419 0.0000000
1.0000000 0.1499419 0.0000000
1.0000000 0.1499419 0.0000000
1.0000000 0.1499419 0.0000000
1.0000000 0.1499419 0.0000000
1.0000000 0.1499419 0.0000000
1.0000000 0.1499419 0.0000000
1.0000000 0.1499419 0.0000000
0.0000000 0.2476213 0.0103796
0.0000000 0.2476213 0.0103796
0.0000000 0.2476213 0.0103796
0.0084477 0.2460277 0.0087859
0.0671291 0.2434218 0.0061800
0.1241934 0.2408876 0.0036458
0.1802759 0.2383971 0.0011553
0.2356529 0.2359379 0.0000000
0.2904798 0.2335031 0.0000000
0.3448567 0.2310884 0.0000000
0.3988530 0.2286905 0.0000000
0.4525201 0.2263072 0.0000000
0.5058972 0.2239368 0.0000000
0.5590152 0.2215780 0.0000000
0.6118993 0.2192295 0.0000000
0.6645703 0.2168905 0.0000000
0.7170455 0.2145601 0.0000000
0.7693400 0.2122378 0.0000000
0.8214664 0.2099230 0.0000000
0.8734360 0.2076151 0.0000000
0.9252585 0.2053137 0.0000000
0.9769423 0.2030185 0.0000000
1.0000000 0.2007292 0.0000000
1.0000000 0.1984453 0.0000000
1.0000000 0.1961666 0.0000000
1.0000000 0.1951332 0.0000000
1.0000000 0.1951332 0.0000000
1.0000000 0.1951332 0.0000000
1.0000000 0.1951332 0.0000000
1.0000000 0.1951332 0.0000000
1.0000000 0.1951332 0.0000000
1.0000000 0.1951332 0.0000000
1.0000000 0.1951332 0.0000000
0.0000000 0.2928126 0.0028364
0.0000000 0.2928126 0.0028364
0.0000000 0.2928126 0.0028364
0.0009045 0.2912189 0.0012428
0.0595859 0.2886130 0.0000000
0.1166503 0.2860789 0.0000000
0.1727328 0.2835883 0.0000000
0.2281097 0.2811292 0.0000000
0.2829367 0.2786944 0.0000000
0.3373136 0.2762796 0.0000000
0.3913099 0.2738817 0.0000000
0.4449770 0.2714984 0.0000000
0.4983540 0.2691281 0.0000000
0.5514721 0.2667692 0.0000000
0.6043562 0.2644207 0.0000000
0.6570271 0.2620817 0.0000000
0.7095024 0.2597513 0.0000000
0.7617970 0.2574290 0.0000000
0.8139234 0.2551142 0.0000000
0.8658929 0.2528063 0.0000000
0.9177153 0.2505050 0.0000000
0.9693992 0.2482098 0.0000000
1.0000000 0.2459204 0.0000000
1.0000000 0.2436365 0.0000000
1.0000000 0.2413579 0.0000000
1.0000000 0.2403244 0.0000000
1.0000000 0.2403244 0.0000000
1.0000000 0.2403244 0.0000000
1.0000000 0.2403244 0.0000000
1.0000000 0.2403244 0.0000000
1.0000000 0.2403244 0.0000000
1.0000000 0.2403244 0.0000000
1.0000000 0.2403244 0.0000000
0.0000000 0.3380038 0.0000000
0.0000000 0.3380038 0.0000000
0.0000000 0.3380038 0.0000000
0.0000000 0.3364102 0.0000000
0.0520428 0.3338042 0.0000000
0.1091072 0.3312701 0.0000000
0.1651897 0.3287796 0.0000000
0.2205666 0.3263204 0.0000000
0.2753935 0.3238856 0.0000000
0.3297704 0.3214709 0.0000000
0.3837668 0.3190730 0.0000000
0.4374339 0.3166897 0.0000000
0.4908109 0.3143193 0.0000000
0.5439290 0.3119605 0.0000000
0.5968130 0.3096120 0.0000000
0.6494840 0.3072729 0.0000000
0.7019593 0.3049426 0.0000000
0.7542538 0.3026203 0.0000000
0.8063802 0.3003055 0.0000000
0.8583497 0.2979976 0.0000000
0.9101722 0.2956962 0.0000000
0.9618561 0.2934011 0.0000000
1.0000000 0.2911116 0.0000000
1.0000000 0.2888278 0.0000000
1.0000000 0.2865491 0.0000000
1.0000000 0.2855157 0.0000000
1.0000000 0.2855157 0.0000000
1.0000000 0.2855157 0.0000000
1.0000000 0.2855157 0.0000000
1.0000000 0.2855157 0.0000000
1.0000000 0.2855157 0.0000000
1.0000000 0.2855157 0.0000000
1.0000000 0.2855157 0.0000000
0.0000000 0.3831951 0.0000000
0.0000000 0.3831951 0.0000000
0.0000000 0.3831951 0.0000000
0.0000000 0.3816015 0.0000000
0.0444997 0.3789955 0.0000000
0.1015640 0.3764614 0.0000000
0.1576466 0.3739709 0.0000000
0.2130235 0.3715117 0.0000000
0.2678504 0.3690769 0.0000000
0.3222273 0.3666621 0.0000000
0.3762237 0.3642642 0.0000000
0.4298907 0.3618810 0.0000000
0.4832678 0.3595106 0.0000000
0.5363858 0.3571517 0.0000000
0.5892699 0.3548032 0.0000000
0.6419409 0.3524642 0.0000000
0.6944162 0.3501339 0.0000000
0.7467107 0.3478115 0.0000000
0.7988371 0.3454967 0.0000000
0.8508066 0.3431889 0.0000000
0.9026290 0.3408875 0.0000000
0.9543129 0.3385923 0.0000000
1.0000000 0.3363029 0.0000000
1.0000000 0.3340190 0.0000000
1.0000000 0.3317404 0.0000000
1.0000000 0.3307069 0.0000000
1.0000000 0.3307069 0.0000000
1.0000000 0.3307069 0.0000000
1.0000000 0.3307069 0.0000000
1.0000000 0.3307069 0.0000000
1.0000000 0.3307069 0.0000000
1.0000000 0.3307069 0.0000000
1.0000000 0.3307069 0.0000000
0.0000000 0.4283863 0.0000000
0.0000000 0.4283863 0.0000000
0.0000000 0.4283863 0.0000000
0.0000000 0.4267927 0.0000000
0.0369565 0.4241867 0.0000000
0.0940209 0.4216526 0.0000000
0.1501034 0.4191621 0.0000000
0.2054804 0.4167029 0.0000000
0.2603073 0.4142681 0.0000000
0.3146842 0.4118533 0.0000000
0.3686805 0.4094555 0.0000000
0.4223476 0.4070722 0.0000000
0.4757247 0.4047018 0.0000000
0.5288427 0.4023429 0.0000000
0.5817268 0.3999945 0.0000000
0.6343977 0.3976554 0.0000000
0.6868730 0.3953251 0.0000000
0.7391676 0.3930028 0.0000000
0.7912940 0.3906879 0.0000000
0.8432635 0.3883801 0.0000000
0.8950859 0.3860787 0.0000000
0.9467698 0.3837835 0.0000000
0.9983230 0.3814942 0.0000000
1.0000000 0.3792103 0.0000000
1.0000000 0.3769316 0.0000000
1.0000000 0.3758982 0.0000000
1.0000000 0.3758982 0.0000000
1.0000000 0.3758982 0.0000000
1.0000000 0.3758982 0.0000000
1.0000000 0.3758982 0.0000000
1.0000000 0.3758982 0.0000000
1.0000000 0.3758982 0.0000000
1.0000000 0.3758982 0.0000000
0.0000000 0.4735776 0.0000000
0.0000000 0.4735776 0.0000000
0.0000000 0.4735776 0.0000000
0.0000000 0.4719839 0.0000000
0.0294134 0.4693780 0.0000000
0.0864778 0.4668439 0.0000000
0.1425603 0.4643534 0.0000000
0.1979373 0.4618942 0.0000000
0.2527642 0.4594594 0.0000000
0.3071411 0.4570446 0.0000000
0.3611374 0.4546467 0.0000000
0.4148045 0.4522635 0.0000000
0.4681816 0.4498931 0.0000000
0.5212996 0.4475342 0.0000000
0.5741836 0.4451857 0.0000000
0.6268547 0.4428467 0.0000000
0.6793299 0.4405164 0.0000000
0.7316244 0.4381940 0.0000000
0.7837508 0.4358792 0.0000000
0.8357204 0.4335713 0.0000000
0.8875428 0.4312700 0.0000000
0.9392267 0.4289748 0.0000000
0.9907798 0.4266854 0.0000000
1.0000000 0.4244015 0.0000000
1.0000000 0.4221229 0.0000000
1.0000000 0.4210894 0.0000000
1.0000000 0.4210894 0.0000000
1.0000000 0.4210894 0.0000000
1.0000000 0.4210894 0.0000000
1.0000000 0.4210894 0.0000000
1.0000000 0.4210894 0.0000000
1.0000000 0.4210894 0.0000000
1.0000000 0.4210894 0.0000000
0.0000000 0.5187688 0.0000000
0.0000000 0.5187688 0.0000000
0.0000000 0.5187688 0.0000000
0.0000000 0.5171752 0.0000000
0.0218703 0.5145693 0.0000000
0.0789347 0.5120351 0.0000000
0.1350172 0.5095446 0.0000000
0.1903941 0.5070854 0.0000000
0.2452210 0.5046507 0.0000000
0.2995979 0.5022359 0.0000000
0.3535943 0.4998380 0.0000000
0.4072613 0.4974547 0.0000000
0.4606384 0.4950843 0.0000000
0.5137565 0.4927255 0.0000000
0.5666405 0.4903770 0.0000000
0.6193115 0.4880379 0.0000000
0.6717868 0.4857076 0.0000000
0.7240813 0.4833853 0.0000000
0.7762077 0.4810705 0.0000000
0.8281772 0.4787626 0.0000000
0.8799996 0.4764612 0.0000000
0.9316835 0.4741661 0.0000000
0.9832367 0.4718767 0.0000000
1.0000000 0.4695928 0.0000000
1.0000000 0.4673141 0.0000000
1.0000000 0.4662807 0.0000000
1.0000000 0.4662807 0.0000000
1.0000000 0.4662807 0.0000000
1.0000000 0.4662807 0.0000000
1.0000000 0.4662807 0.0000000
1.0000000 0.4662807 0.0000000
1.0000000 0.4662807 0.0000000
1.0000000 0.4662807 0.0000000
0.0000000 0.5639601 0.0000000
0.0000000 0.5639601 0.0000000
0.0000000 0.5639601 0.0000000
0.0000000 0.5623664 0.0000000
0.0143272 0.5597605 0.0000000
0.0713915 0.5572263 0.0000000
0.1274741 0.5547358 0.0000000
0.1828510 0.5522766 0.0000000
0.2376779 0.5498419 0.0000000
0.2920548 0.5474271 0.0000000
0.3460512 0.5450292 0.0000000
0.3997182 0.5426459 0.0000000
0.4530953 0.5402756 0.0000000
0.5062133 0.5379167 0.0000000
0.5590974 0.5355682 0.0000000
0.6117684 0.5332292 0.0000000
0.6642436 0.5308988 0.0000000
0.7165382 0.5285765 0.0000000
0.7686646 0.5262617 0.0000000
0.8206341 0.5239538 0.0000000
0.8724566 0.5216525 0.0000000
0.9241405 0.5193573 0.0000000
0.9756936 0.5170679 0.0000000
1.0000000 0.5147840 0.0000000
1.0000000 0.5125054 0.0000000
1.0000000 0.5114719 0.0000000
1.0000000 0.5114719 0.0000000
1.0000000 0.5114719 0.0000000
1.0000000 0.5114719 0.0000000
1.0000000 0.5114719 0.0000000
1.0000000 0.5114719 0.0000000
1.0000000 0.5114719 0.0000000
1.0000000 0.5114719 0.0000000
0.0000000 0.6091513 0.0000000
0.0000000 0.6091513 0.0000000
0.0000000 0.6091513 0.0000000
0.0000000 0.6075577 0.0000000
0.0067841 0.6049517 0.0000000
0.0638484 0.6024176 0.0000000
0.1199310 0.5999271 0.0000000
0.1753079 0.5974679 0.0000000
0.2301348 0.5950331 0.0000000
0.2845117 0.5926183 0.0000000
0.3385080 0.5902205 0.0000000
0.3921751 0.5878372 0.0000000
0.4455522 0.5854668 0.0000000
0.4986702 0.5831079 0.0000000
0.5515543 0.5807594 0.0000000
0.6042253 0.5784204 0.0000000
0.6567005 0.5760901 0.0000000
0.7089951 0.5737678 0.0000000
0.7611215 0.5714529 0.0000000
0.8130910 0.5691451 0.0000000
0.8649135 0.5668437 0.0000000
0.9165973 0.5645485 0.0000000
0.9681504 0.5622591 0.0000000
1.0000000 0.5599753 0.0000000
1.0000000 0.5576966 0.0000000
1.0000000 0.5566632 0.0000000
1.0000000 0.5566632 0.0000000
1.0000000 0.5566632 0.0000000
1.0000000 0.5566632 0.0000000
1.0000000 0.5566632 0.0000000
1.0000000 0.5566632 0.0000000
1.0000000 0.5566632 0.0000000
1.0000000 0.5566632 0.0000000
0.0000000 0.6543426 0.0000000
0.0000000 0.6543426 0.0000000
0.0000000 0.6543426 0.0000000
0.0000000 0.6527489 0.0000000
0.0000000 0.6501430 0.0000000
0.0563053 0.6476089 0.0000000
0.1123878 0.6451184 0.0000000
0.1677648 0.6426592 0.0000000
0.2225917 0.6402244 0.0000000
0.2769686 0.6378096 0.0000000
0.3309649 0.6354117 0.0000000
0.3846320 0.6330284 0.0000000
0.4380091 0.6306581 0.0000000
0.4911271 0.6282992 0.0000000
0.5440112 0.6259507 0.0000000
0.5966822 0.6236117 0.0000000
0.6491574 0.6212814 0.0000000
0.7014520 0.6189591 0.0000000
0.7535784 0.6166442 0.0000000
0.8055479 0.6143363 0.0000000
0.8573703 0.6120350 0.0000000
0.9090542 0.6097398 0.0000000
0.9606073 0.6074504 0.0000000
1.0000000 0.6051666 0.0000000
1.0000000 0.6028879 0.0000000
1.0000000 0.6018544 0.0000000
1.0000000 0.6018544 0.0000000
1.0000000 0.6018544 0.0000000
1.0000000 0.6018544 0.0000000
1.0000000 0.6018544 0.0000000
1.0000000 0.6018544 0.0000000
1.0000000 0.6018544 0.0000000
1.0000000 0.6018544 0.0000000
0.0000000 0.6995338 0.0000000
0.0000000 0.6995338 0.0000000
0.0000000 0.6995338 0.0000000
0.0000000 0.6979402 0.0000000
0.0000000 0.6953343 0.0000000
0.0487622 0.6928001 0.0000000
0.1048447 0.6903096 0.0000000
0.1602216 0.6878504 0.0000000
0.2150485 0.6854156 0.0000000
0.2694254 0.6830009 0.0000000
0.3234218 0.6806030 0.0000000
0.3770888 0.6782197 0.0000000
0.4304659 0.6758493 0.0000000
0.4835839 0.6734905 0.0000000
0.5364680 0.6711420 0.0000000
0.5891390 0.6688030 0.0000000
0.6416143 0.6664726 0.0000000
0.6939088 0.6641503 0.0000000
0.7460352 0.6618354 0.0000000
0.7980047 0.6595276 0.0000000
0.8498272 0.6572262 0.0000000
0.9015111 0.6549311 0.0000000
0.9530642 0.6526417 0.0000000
1.0000000 0.6503578 0.0000000
1.0000000 0.6480792 0.0000000
1.0000000 0.6470457 0.0000000
1.0000000 0.6470457 0.0000000
1.0000000 0.6470457 0.0000000
1.0000000 0.6470457 0.0000000
1.0000000 0.6470457 0.0000000
1.0000000 0.6470457 0.0000000
1.0000000 0.6470457 0.0000000
1.0000000 0.6470457 0.0000000
0.0000000 0.7447250 0.0000000
0.0000000 0.7447250 0.0000000
0.0000000 0.7447250 0.0000000
0.0000000 0.7431314 0.0000000
0.0000000 0.7405255 0.0000000
0.0412191 0.7379913 0.0000000
0.0973016 0.7355008 0.0000000
0.1526785 0.7330416 0.0000000
0.2075054 0.7306069 0.0000000
0.2618823 0.7281921 0.0000000
0.3158786 0.7257942 0.0000000
0.3695458 0.7234109 0.0000000
0.4229228 0.7210405 0.0000000
0.4760408 0.7186816 0.0000000
0.5289249 0.7163332 0.0000000
0.5815959 0.7139941 0.0000000
0.6340712 0.7116638 0.0000000
0.6863657 0.7093415 0.0000000
0.7384921 0.7070267 0.0000000
0.7904617 0.7047188 0.0000000
0.8422841 0.7024174 0.0000000
0.8939680 0.7001222 0.0000000
0.9455211 0.6978329 0.0000000
0.9969504 0.6955490 0.0000000
1.0000000 0.6932703 0.0000000
1.0000000 0.6922369 0.0000000
1.0000000 0.6922369 0.0000000
1.0000000 0.6922369 0.0000000
1.0000000 0.6922369 0.0000000
1.0000000 0.6922369 0.0000000
1.0000000 0.6922369 0.0000000
1.0000000 0.6922369 0.0000000
1.0000000 0.6922369 0.0000000
0.0000000 0.7899163 0.0000000
0.0000000 0.7899163 0.0000000
0.0000000 0.7899163 0.0000000
0.0000000 0.7883227 0.0000000
0.0000000 0.7857167 0.0000000
0.0336759 0.7831826 0.0000000
0.0897585 0.7806920 0.0000000
0.1451353 0.7782329 0.0000000
0.1999623 0.7757981 0.0000000
0.2543392 0.7733833 0.0000000
0.3083355 0.7709854 0.0000000
0.3620026 0.7686022 0.0000000
0.4153797 0.7662318 0.0000000
0.4684977 0.7638729 0.0000000
0.5213818 0.7615244 0.0000000
0.5740528 0.7591854 0.0000000
0.6265280 0.7568551 0.0000000
0.6788226 0.7545328 0.0000000
0.7309490 0.7522179 0.0000000
0.7829185 0.7499101 0.0000000
0.8347409 0.7476087 0.0000000
0.8864248 0.7453135 0.0000000
0.9379780 0.7430241 0.0000000
0.9894073 0.7407402 0.0000000
1.0000000 0.7384616 0.0000000
1.0000000 0.7374281 0.0000000
1.0000000 0.7374281 0.0000000
1.0000000 0.7374281 0.0000000
1.0000000 0.7374281 0.0000000
1.0000000 0.7374281 0.0000000
1.0000000 0.7374281 0.0000000
1.0000000 0.7374281 0.0000000
1.0000000 0.7374281 0.0000000
0.0000000 0.8351076 0.0000000
0.0000000 0.8351076 0.0000000
0.0000000 0.8351076 0.0000000
0.0000000 0.8335139 0.0000000
0.0000000 0.8309079 0.0000000
0.0261328 0.8283738 0.0000000
0.0822153 0.8258833 0.0000000
0.1375922 0.8234241 0.0000000
0.1924192 0.8209894 0.0000000
0.2467960 0.8185745 0.0000000
0.3007924 0.8161767 0.0000000
0.3544595 0.8137934 0.0000000
0.4078366 0.8114231 0.0000000
0.4609546 0.8090641 0.0000000
0.5138386 0.8067157 0.0000000
0.5665097 0.8043767 0.0000000
0.6189849 0.8020463 0.0000000
0.6712794 0.7997240 0.0000000
0.7234058 0.7974092 0.0000000
0.7753754 0.7951013 0.0000000
0.8271978 0.7927999 0.0000000
0.8788817 0.7905048 0.0000000
0.9304348 0.7882154 0.0000000
0.9818642 0.7859315 0.0000000
1.0000000 0.7836528 0.0000000
1.0000000 0.7826194 0.0000000
1.0000000 0.7826194 0.0000000
1.0000000 0.7826194 0.0000000
1.0000000 0.7826194 0.0000000
1.0000000 0.7826194 0.0000000
1.0000000 0.7826194 0.0000000
1.0000000 0.7826194 0.0000000
1.0000000 0.7826194 0.0000000
0.0000000 0.8802989 0.0000000
0.0000000 0.8802989 0.0000000
0.0000000 0.8802989 0.0000000
0.0000000 0.8787052 0.0000000
0.0000000 0.8760992 0.0000000
0.0185897 0.8735651 0.0000000
0.0746722 0.8710746 0.0000000
0.1300491 0.8686154 0.0000000
0.1848761 0.8661807 0.0000000
0.2392529 0.8637658 0.0000000
0.2932493 0.8613679 0.0000000
0.3469164 0.8589847 0.0000000
0.4002934 0.8566144 0.0000000
0.4534115 0.8542554 0.0000000
0.5062956 0.8519070 0.0000000
0.5589665 0.8495679 0.0000000
0.6114418 0.8472376 0.0000000
0.6637363 0.8449153 0.0000000
0.7158628 0.8426005 0.0000000
0.7678323 0.8402926 0.0000000
0.8196547 0.8379912 0.0000000
0.8713386 0.8356960 0.0000000
0.9228917 0.8334067 0.0000000
0.9743211 0.8311228 0.0000000
1.0000000 0.8288441 0.0000000
1.0000000 0.8278106 0.0000000
1.0000000 0.8278106 0.0000000
1.0000000 0.8278106 0.0000000
1.0000000 0.8278106 0.0000000
1.0000000 0.8278106 0.0000000
1.0000000 0.8278106 0.0000000
1.0000000 0.8278106 0.0000000
1.0000000 0.8278106 0.0000000
0.0000000 0.9254901 0.0000000
0.0000000 0.9254901 0.0000000
0.0000000 0.9254901 0.0000000
0.0000000 0.9238964 0.0000000
0.0000000 0.9212905 0.0000000
0.0110465 0.9187564 0.0000000
0.0671291 0.9162658 0.0000000
0.1225060 0.9138067 0.0000000
0.1773329 0.9113719 0.0000000
0.2317098 0.9089571 0.0000000
0.2857062 0.9065592 0.0000000
0.3393732 0.9041760 0.0000000
0.3927503 0.9018056 0.0000000
0.4458683 0.8994467 0.0000000
0.4987524 0.8970982 0.0000000
0.5514234 0.8947592 0.0000000
0.6038986 0.8924289 0.0000000
0.6561932 0.8901066 0.0000000
0.7083196 0.8877917 0.0000000
0.7602891 0.8854839 0.0000000
0.8121116 0.8831825 0.0000000
0.8637955 0.8808873 0.0000000
0.9153486 0.8785979 0.0000000
0.9667779 0.8763140 0.0000000
1.0000000 0.8740354 0.0000000
1.0000000 0.8730019 0.0000000
1.0000000 0.8730019 0.0000000
1.0000000 0.8730019 0.0000000
1.0000000 0.8730019 0.0000000
1.0000000 0.8730019 0.0000000
1.0000000 0.8730019 0.0000000
1.0000000 0.8730019 0.0000000
1.0000000 0.8730019 0.0000000
0.0000000 0.9706814 0.0000000
0.0000000 0.9706814 0.0000000
0.0000000 0.9706814 0.0000000
0.0000000 0.9690877 0.0000000
0.0000000 0.9664817 0.0000000
0.0035034 0.9639477 0.0000000
