luts/lume_20260429_195903.cube
TITLE "Lume Grade"
LUT_3D_SIZE 33
0.0001764 0.0001764 0.0140129
0.0001764 0.0001764 0.0140129
0.0001764 0.0001764 0.0140129
0.0001764 0.0001764 0.0140129
0.0001764 0.0001764 0.0140129
0.0001764 0.0001764 0.0140129
0.0161760 0.0007549 0.0145915
0.0438918 0.0017572 0.0155937
0.0747439 0.0028728 0.0167093
0.1076929 0.0040643 0.0179008
0.1422517 0.0053140 0.0191505
0.1781303 0.0066114 0.0204479
0.2151342 0.0079495 0.0217860
0.2531231 0.0093232 0.0231597
0.2919902 0.0107286 0.0245652
0.3316516 0.0121628 0.0259994
0.3720391 0.0136233 0.0274598
0.4130967 0.0151080 0.0289445
0.4547768 0.0166152 0.0304517
0.4970387 0.0181434 0.0319799
0.5398473 0.0196914 0.0335279
0.5831718 0.0212581 0.0350946
0.6269851 0.0228424 0.0366789
0.6712630 0.0244435 0.0382800
0.7159836 0.0260607 0.0398972
0.7611276 0.0276931 0.0415296
0.8066771 0.0293402 0.0431768
0.8526160 0.0310014 0.0448380
0.8820663 0.0320664 0.0459029
0.8820663 0.0320664 0.0459029
0.8820663 0.0320664 0.0459029
0.8820663 0.0320664 0.0459029
0.8820663 0.0320664 0.0459029
0.0001764 0.0001764 0.0140129
0.0001764 0.0001764 0.0140129
0.0001764 0.0001764 0.0140129
0.0001764 0.0001764 0.0140129
0.0001764 0.0001764 0.0140129
0.0001764 0.0001764 0.0140129
0.0161760 0.0007549 0.0145915
0.0438918 0.0017572 0.0155937
0.0747439 0.0028728 0.0167093
0.1076929 0.0040643 0.0179008
0.1422517 0.0053140 0.0191505
0.1781303 0.0066114 0.0204479
0.2151342 0.0079495 0.0217860
0.2531231 0.0093232 0.0231597
0.2919902 0.0107286 0.0245652
0.3316516 0.0121628 0.0259994
0.3720391 0.0136233 0.0274598
0.4130967 0.0151080 0.0289445
0.4547768 0.0166152 0.0304517
0.4970387 0.0181434 0.0319799
0.5398473 0.0196914 0.0335279
0.5831718 0.0212581 0.0350946
0.6269851 0.0228424 0.0366789
0.6712630 0.0244435 0.0382800
0.7159836 0.0260607 0.0398972
0.7611276 0.0276931 0.0415296
0.8066771 0.0293402 0.0431768
0.8526160 0.0310014 0.0448380
0.8820663 0.0320664 0.0459029
0.8820663 0.0320664 0.0459029
0.8820663 0.0320664 0.0459029
0.8820663 0.0320664 0.0459029
0.8820663 0.0320664 0.0459029
0.0001764 0.0001764 0.0140129
0.0001764 0.0001764 0.0140129
0.0001764 0.0001764 0.0140129
0.0001764 0.0001764 0.0140129
0.0001764 0.0001764 0.0140129
0.0001764 0.0001764 0.0140129
0.0161760 0.0007549 0.0145915
0.0438918 0.0017572 0.0155937
0.0747439 0.0028728 0.0167093
0.1076929 0.0040643 0.0179008
0.1422517 0.0053140 0.0191505
0.1781303 0.0066114 0.0204479
0.2151342 0.0079495 0.0217860
0.2531231 0.0093232 0.0231597
0.2919902 0.0107286 0.0245652
0.3316516 0.0121628 0.0259994
0.3720391 0.0136233 0.0274598
0.4130967 0.0151080 0.0289445
0.4547768 0.0166152 0.0304517
0.4970387 0.0181434 0.0319799
0.5398473 0.0196914 0.0335279
0.5831718 0.0212581 0.0350946
0.6269851 0.0228424 0.0366789
0.6712630 0.0244435 0.0382800
0.7159836 0.0260607 0.0398972
0.7611276 0.0276931 0.0415296
0.8066771 0.0293402 0.0431768
0.8526160 0.0310014 0.0448380
0.8820663 0.0320664 0.0459029
0.8820663 0.0320664 0.0459029
0.8820663 0.0320664 0.0459029
0.8820663 0.0320664 0.0459029
0.8820663 0.0320664 0.0459029
0.0001764 0.0001764 0.0140129
0.0001764 0.0001764 0.0140129
0.0001764 0.0001764 0.0140129
0.0001764 0.0001764 0.0140129
0.0001764 0.0001764 0.0140129
0.0001764 0.0001764 0.0140129
0.0161760 0.0007549 0.0145915
0.0438918 0.0017572 0.0155937
0.0747439 0.0028728 0.0167093
0.1076929 0.0040643 0.0179008
0.1422517 0.0053140 0.0191505
0.1781303 0.0066114 0.0204479
0.2151342 0.0079495 0.0217860
0.2531231 0.0093232 0.0231597
0.2919902 0.0107286 0.0245652
0.3316516 0.0121628 0.0259994
0.3720391 0.0136233 0.0274598
0.4130967 0.0151080 0.0289445
0.4547768 0.0166152 0.0304517
0.4970387 0.0181434 0.0319799
0.5398473 0.0196914 0.0335279
0.5831718 0.0212581 0.0350946
0.6269851 0.0228424 0.0366789
0.6712630 0.0244435 0.0382800
0.7159836 0.0260607 0.0398972
0.7611276 0.0276931 0.0415296
0.8066771 0.0293402 0.0431768
0.8526160 0.0310014 0.0448380
0.8820663 0.0320664 0.0459029
0.8820663 0.0320664 0.0459029
0.8820663 0.0320664 0.0459029
0.8820663 0.0320664 0.0459029
0.8820663 0.0320664 0.0459029
0.0001764 0.0001764 0.0140129
0.0001764 0.0001764 0.0140129
0.0001764 0.0001764 0.0140129
0.0001764 0.0001764 0.0140129
0.0001764 0.0001764 0.0140129
0.0001764 0.0001764 0.0140129
0.0161760 0.0007549 0.0145915
0.0438918 0.0017572 0.0155937
0.0747439 0.0028728 0.0167093
0.1076929 0.0040643 0.0179008
0.1422517 0.0053140 0.0191505
0.1781303 0.0066114 0.0204479
0.2151342 0.0079495 0.0217860
0.2531231 0.0093232 0.0231597
0.2919902 0.0107286 0.0245652
0.3316516 0.0121628 0.0259994
0.3720391 0.0136233 0.0274598
0.4130967 0.0151080 0.0289445
0.4547768 0.0166152 0.0304517
0.4970387 0.0181434 0.0319799
0.5398473 0.0196914 0.0335279
0.5831718 0.0212581 0.0350946
0.6269851 0.0228424 0.0366789
0.6712630 0.0244435 0.0382800
0.7159836 0.0260607 0.0398972
0.7611276 0.0276931 0.0415296
0.8066771 0.0293402 0.0431768
0.8526160 0.0310014 0.0448380
0.8820663 0.0320664 0.0459029
0.8820663 0.0320664 0.0459029
0.8820663 0.0320664 0.0459029
0.8820663 0.0320664 0.0459029
0.8820663 0.0320664 0.0459029
0.0023091 0.0192071 0.0161456
0.0023091 0.0192071 0.0161456
0.0023091 0.0192071 0.0161456
0.0023091 0.0192071 0.0161456
0.0023091 0.0192071 0.0161456
0.0023091 0.0192071 0.0161456
0.0183088 0.0197857 0.0167242
0.0460245 0.0207879 0.0177264
0.0768766 0.0219035 0.0188421
0.1098256 0.0230950 0.0200335
0.1443844 0.0243447 0.0212832
0.1802630 0.0256421 0.0225806
0.2172669 0.0269802 0.0239187
0.2552558 0.0283539 0.0252924
0.2941229 0.0297594 0.0266979
0.3337843 0.0311936 0.0281321
0.3741719 0.0326540 0.0295926
0.4152295 0.0341387 0.0310772
0.4569095 0.0356459 0.0325844
0.4991714 0.0371741 0.0341127
0.5419800 0.0387221 0.0356607
0.5853045 0.0402888 0.0372273
0.6291178 0.0418731 0.0388116
0.6733958 0.0434743 0.0404128
0.7181163 0.0450914 0.0420299
0.7632602 0.0467238 0.0436624
0.8088098 0.0483710 0.0453095
0.8547487 0.0500322 0.0469707
0.8841990 0.0510971 0.0480356
0.8841990 0.0510971 0.0480356
0.8841990 0.0510971 0.0480356
0.8841990 0.0510971 0.0480356
0.8841990 0.0510971 0.0480356
0.0055462 0.0480921 0.0193827
0.0055462 0.0480921 0.0193827
0.0055462 0.0480921 0.0193827
0.0055462 0.0480921 0.0193827
0.0055462 0.0480921 0.0193827
0.0055462 0.0480921 0.0193827
0.0215458 0.0486706 0.0199613
0.0492616 0.0496729 0.0209635
0.0801136 0.0507885 0.0220791
0.1130627 0.0519800 0.0232706
0.1476215 0.0532297 0.0245203
0.1835001 0.0545271 0.0258177
0.2205040 0.0558652 0.0271558
0.2584929 0.0572389 0.0285295
0.2973600 0.0586443 0.0299350
0.3370214 0.0600785 0.0313692
0.3774090 0.0615390 0.0328296
0.4184666 0.0630237 0.0343143
0.4601465 0.0645309 0.0358215
0.5024085 0.0660591 0.0373497
0.5452170 0.0676071 0.0388977
0.5885416 0.0691738 0.0404644
0.6323549 0.0707581 0.0420487
0.6766328 0.0723592 0.0436498
0.7213534 0.0739764 0.0452670
0.7664974 0.0756088 0.0468994
0.8120468 0.0772559 0.0485465
0.8579857 0.0789171 0.0502077
0.8874362 0.0799821 0.0512727
0.8874362 0.0799821 0.0512727
0.8874362 0.0799821 0.0512727
0.8874362 0.0799821 0.0512727
0.8874362 0.0799821 0.0512727
0.0091267 0.0800417 0.0229632
0.0091267 0.0800417 0.0229632
0.0091267 0.0800417 0.0229632
0.0091267 0.0800417 0.0229632
0.0091267 0.0800417 0.0229632
0.0091267 0.0800417 0.0229632
0.0251264 0.0806203 0.0235418
0.0528421 0.0816225 0.0245440
0.0836942 0.0827381 0.0256596
0.1166432 0.0839296 0.0268511
0.1512020 0.0851793 0.0281008
0.1870806 0.0864767 0.0293982
0.2240845 0.0878148 0.0307363
0.2620734 0.0891885 0.0321100
0.3009405 0.0905940 0.0335155
0.3406019 0.0920282 0.0349497
0.3809895 0.0934886 0.0364101
0.4220470 0.0949733 0.0378948
0.4637271 0.0964805 0.0394020
0.5059890 0.0980087 0.0409302
0.5487975 0.0995567 0.0424782
0.5921221 0.1011234 0.0440449
0.6359354 0.1027077 0.0456292
0.6802133 0.1043088 0.0472303
0.7249339 0.1059260 0.0488475
0.7700779 0.1075584 0.0504799
0.8156273 0.1092055 0.0521270
0.8615662 0.1108667 0.0537882
0.8910166 0.1119317 0.0548532
0.8910166 0.1119317 0.0548532
0.8910166 0.1119317 0.0548532
0.8910166 0.1119317 0.0548532
0.8910166 0.1119317 0.0548532
0.0129415 0.1140822 0.0267781
0.0129415 0.1140822 0.0267781
0.0129415 0.1140822 0.0267781
0.0129415 0.1140822 0.0267781
0.0129415 0.1140822 0.0267781
0.0129415 0.1140822 0.0267781
0.0289412 0.1146608 0.0273566
0.0566570 0.1156630 0.0283588
0.0875090 0.1167787 0.0294745
0.1204580 0.1179701 0.0306660
0.1550168 0.1192198 0.0319156
0.1908954 0.1205172 0.0332130
0.2278994 0.1218553 0.0345511
0.2658882 0.1232290 0.0359249
0.3047553 0.1246345 0.0373303
0.3444167 0.1260687 0.0387645
0.3848043 0.1275292 0.0402250
0.4258619 0.1290138 0.0417097
0.4675419 0.1305210 0.0432169
0.5098038 0.1320493 0.0447451
0.5526124 0.1335973 0.0462931
0.5959370 0.1351639 0.0478597
0.6397502 0.1367483 0.0494441
0.6840281 0.1383494 0.0510452
0.7287487 0.1399665 0.0526623
0.7738926 0.1415990 0.0542948
0.8194422 0.1432461 0.0559419
0.8653811 0.1449073 0.0576031
0.8948315 0.1459722 0.0586680
0.8948315 0.1459722 0.0586680
0.8948315 0.1459722 0.0586680
0.8948315 0.1459722 0.0586680
0.8948315 0.1459722 0.0586680
0.0169378 0.1497415 0.0307743
0.0169378 0.1497415 0.0307743
0.0169378 0.1497415 0.0307743
0.0169378 0.1497415 0.0307743
0.0169378 0.1497415 0.0307743
0.0169378 0.1497415 0.0307743
0.0329374 0.1503201 0.0313529
0.0606532 0.1513223 0.0323551
0.0915052 0.1524379 0.0334707
0.1244543 0.1536294 0.0346622
0.1590131 0.1548791 0.0359119
0.1948917 0.1561765 0.0372093
0.2318956 0.1575146 0.0385474
0.2698845 0.1588883 0.0399211
0.3087516 0.1602938 0.0413266
0.3484129 0.1617280 0.0427608
0.3888006 0.1631884 0.0442212
0.4298581 0.1646731 0.0457059
0.4715382 0.1661803 0.0472131
0.5138001 0.1677085 0.0487413
0.5566087 0.1692565 0.0502893
0.5999331 0.1708232 0.0518560
0.6437465 0.1724075 0.0534403
0.6880244 0.1740086 0.0550414
0.7327449 0.1756258 0.0566586
0.7778890 0.1772582 0.0582910
0.8234384 0.1789053 0.0599381
0.8693773 0.1805665 0.0615993
0.8988277 0.1816315 0.0626643
0.8988277 0.1816315 0.0626643
0.8988277 0.1816315 0.0626643
0.8988277 0.1816315 0.0626643
0.8988277 0.1816315 0.0626643
0.0210834 0.1867341 0.0349200
0.0210834 0.1867341 0.0349200
0.0210834 0.1867341 0.0349200
0.0210834 0.1867341 0.0349200
0.0210834 0.1867341 0.0349200
0.0210834 0.1867341 0.0349200
0.0370831 0.1873127 0.0354985
0.0647989 0.1883149 0.0365008
0.0956509 0.1894306 0.0376164
0.1285999 0.1906220 0.0388079
0.1631587 0.1918717 0.0400576
0.1990374 0.1931691 0.0413550
0.2360413 0.1945072 0.0426930
0.2740301 0.1958809 0.0440668
0.3128972 0.1972864 0.0454722
0.3525586 0.1987206 0.0469064
0.3929462 0.2001811 0.0483669
0.4340038 0.2016657 0.0498516
0.4756839 0.2031729 0.0513588
0.5179458 0.2047012 0.0528870
0.5607543 0.2062492 0.0544350
0.6040789 0.2078158 0.0560016
0.6478921 0.2094001 0.0575860
0.6921700 0.2110013 0.0591871
0.7368907 0.2126184 0.0608042
0.7820346 0.2142509 0.0624367
0.8275841 0.2158980 0.0640838
0.8735230 0.2175592 0.0657450
0.9029734 0.2186241 0.0668100
0.9029734 0.2186241 0.0668100
0.9029734 0.2186241 0.0668100
0.9029734 0.2186241 0.0668100
0.9029734 0.2186241 0.0668100
0.0253569 0.2248671 0.0391934
0.0253569 0.2248671 0.0391934
0.0253569 0.2248671 0.0391934
0.0253569 0.2248671 0.0391934
0.0253569 0.2248671 0.0391934
0.0253569 0.2248671 0.0391934
0.0413566 0.2254456 0.0397720
0.0690723 0.2264479 0.0407742
0.0999244 0.2275635 0.0418899
0.1328734 0.2287550 0.0430813
0.1674322 0.2300046 0.0443310
0.2033108 0.2313020 0.0456284
0.2403148 0.2326401 0.0469665
0.2783036 0.2340139 0.0483402
0.3171707 0.2354193 0.0497457
0.3568321 0.2368535 0.0511799
0.3972197 0.2383140 0.0526403
0.4382772 0.2397987 0.0541250
0.4799573 0.2413058 0.0556322
0.5222192 0.2428341 0.0571605
0.5650278 0.2443821 0.0587084
0.6083523 0.2459487 0.0602751
0.6521657 0.2475331 0.0618594
0.6964436 0.2491342 0.0634606
0.7411641 0.2507513 0.0650777
0.7863081 0.2523838 0.0667101
0.8318576 0.2540309 0.0683573
0.8777965 0.2556921 0.0700185
0.9072468 0.2567571 0.0710834
0.9072468 0.2567571 0.0710834
0.9072468 0.2567571 0.0710834
0.9072468 0.2567571 0.0710834
0.9072468 0.2567571 0.0710834
0.0297424 0.2640001 0.0435790
0.0297424 0.2640001 0.0435790
0.0297424 0.2640001 0.0435790
0.0297424 0.2640001 0.0435790
0.0297424 0.2640001 0.0435790
0.0297424 0.2640001 0.0435790
0.0457421 0.2645787 0.0441575
0.0734579 0.2655809 0.0451598
0.1043099 0.2666965 0.0462754
0.1372589 0.2678880 0.0474669
0.1718177 0.2691377 0.0487166
0.2076964 0.2704351 0.0500140
0.2447003 0.2717732 0.0513521
0.2826891 0.2731469 0.0527258
0.3215562 0.2745524 0.0541312
0.3612176 0.2759866 0.0555654
0.4016052 0.2774470 0.0570259
0.4426628 0.2789317 0.0585106
0.4843429 0.2804389 0.0600178
0.5266048 0.2819671 0.0615460
0.5694133 0.2835151 0.0630940
0.6127379 0.2850818 0.0646606
0.6565511 0.2866661 0.0662450
0.7008290 0.2882673 0.0678461
0.7455497 0.2898844 0.0694633
0.7906936 0.2915168 0.0710957
0.8362430 0.2931640 0.0727428
0.8821820 0.2948251 0.0744040
0.9116324 0.2958901 0.0754690
0.9116324 0.2958901 0.0754690
0.9116324 0.2958901 0.0754690
0.9116324 0.2958901 0.0754690
0.9116324 0.2958901 0.0754690
0.0342281 0.3040264 0.0480646
0.0342281 0.3040264 0.0480646
0.0342281 0.3040264 0.0480646
0.0342281 0.3040264 0.0480646
0.0342281 0.3040264 0.0480646
0.0342281 0.3040264 0.0480646
0.0502278 0.3046049 0.0486432
0.0779435 0.3056072 0.0496454
0.1087956 0.3067228 0.0507611
0.1417446 0.3079143 0.0519525
0.1763034 0.3091640 0.0532022
0.2121820 0.3104614 0.0544996
0.2491859 0.3117995 0.0558377
0.2871748 0.3131732 0.0572114
0.3260419 0.3145787 0.0586169
0.3657033 0.3160129 0.0600511
0.4060909 0.3174733 0.0615115
0.4471484 0.3189580 0.0629962
0.4888285 0.3204652 0.0645034
0.5310904 0.3219934 0.0660316
0.5738990 0.3235414 0.0675796
0.6172235 0.3251081 0.0691463
0.6610368 0.3266924 0.0707306
0.7053147 0.3282935 0.0723318
0.7500353 0.3299107 0.0739489
0.7951792 0.3315431 0.0755813
0.8407288 0.3331902 0.0772285
0.8866676 0.3348514 0.0788897
0.9161180 0.3359164 0.0799546
0.9161180 0.3359164 0.0799546
0.9161180 0.3359164 0.0799546
0.9161180 0.3359164 0.0799546
0.9161180 0.3359164 0.0799546
0.0388044 0.3448614 0.0526409
0.0388044 0.3448614 0.0526409
0.0388044 0.3448614 0.0526409
0.0388044 0.3448614 0.0526409
0.0388044 0.3448614 0.0526409
0.0388044 0.3448614 0.0526409
0.0548040 0.3454399 0.0532195
0.0825198 0.3464422 0.0542217
0.1133718 0.3475578 0.0553373
0.1463209 0.3487493 0.0565288
0.1808797 0.3499990 0.0577785
0.2167583 0.3512963 0.0590759
0.2537622 0.3526344 0.0604140
0.2917511 0.3540082 0.0617877
0.3306182 0.3554136 0.0631932
0.3702796 0.3568478 0.0646273
0.4106672 0.3583083 0.0660878
0.4517247 0.3597929 0.0675725
0.4934048 0.3613001 0.0690797
0.5356667 0.3628284 0.0706079
0.5784752 0.3643764 0.0721559
0.6217998 0.3659430 0.0737226
0.6656131 0.3675274 0.0753069
0.7098910 0.3691285 0.0769080
0.7546116 0.3707456 0.0785252
0.7997556 0.3723781 0.0801576
0.8453050 0.3740252 0.0818047
0.8912439 0.3756864 0.0834659
0.9206944 0.3767514 0.0845309
0.9206944 0.3767514 0.0845309
0.9206944 0.3767514 0.0845309
0.9206944 0.3767514 0.0845309
0.9206944 0.3767514 0.0845309
0.0434636 0.3864366 0.0573001
0.0434636 0.3864366 0.0573001
0.0434636 0.3864366 0.0573001
0.0434636 0.3864366 0.0573001
0.0434636 0.3864366 0.0573001
0.0434636 0.3864366 0.0573001
0.0594633 0.3870152 0.0578787
0.0871790 0.3880174 0.0588809
0.1180311 0.3891331 0.0599966
0.1509801 0.3903245 0.0611880
0.1855389 0.3915742 0.0624377
0.2214175 0.3928716 0.0637351
0.2584215 0.3942097 0.0650732
0.2964103 0.3955834 0.0664469
0.3352774 0.3969889 0.0678524
0.3749388 0.3984231 0.0692866
0.4153264 0.3998835 0.0707470
0.4563839 0.4013682 0.0722317
0.4980640 0.4028754 0.0737389
0.5403259 0.4044037 0.0752672
0.5831345 0.4059516 0.0768152
0.6264590 0.4075183 0.0783818
0.6702723 0.4091026 0.0799662
0.7145503 0.4107038 0.0815673
0.7592708 0.4123209 0.0831844
0.8044148 0.4139534 0.0848169
0.8499643 0.4156005 0.0864640
0.8959031 0.4172617 0.0881252
0.9253535 0.4183266 0.0891901
0.9253535 0.4183266 0.0891901
0.9253535 0.4183266 0.0891901
0.9253535 0.4183266 0.0891901
0.9253535 0.4183266 0.0891901
0.0481994 0.4286952 0.0620359
0.0481994 0.4286952 0.0620359
0.0481994 0.4286952 0.0620359
0.0481994 0.4286952 0.0620359
0.0481994 0.4286952 0.0620359
0.0481994 0.4286952 0.0620359
0.0641991 0.4292738 0.0626145
0.0919148 0.4302760 0.0636167
0.1227669 0.4313916 0.0647324
0.1557159 0.4325831 0.0659238
0.1902747 0.4338328 0.0671735
0.2261533 0.4351302 0.0684709
0.2631572 0.4364683 0.0698090
0.3011461 0.4378420 0.0711827
0.3400132 0.4392475 0.0725882
0.3796746 0.4406817 0.0740224
0.4200622 0.4421421 0.0754828
0.4611198 0.4436268 0.0769675
0.5027998 0.4451340 0.0784747
0.5450617 0.4466622 0.0800030
0.5878703 0.4482102 0.0815510
0.6311948 0.4497769 0.0831176
0.6750081 0.4513612 0.0847020
0.7192860 0.4529623 0.0863031
0.7640066 0.4545795 0.0879202
0.8091506 0.4562119 0.0895527
0.8547001 0.4578590 0.0911998
0.9006389 0.4595202 0.0928609
0.9300894 0.4605852 0.0939259
0.9300894 0.4605852 0.0939259
0.9300894 0.4605852 0.0939259
0.9300894 0.4605852 0.0939259
0.9300894 0.4605852 0.0939259
0.0530064 0.4715891 0.0668430
0.0530064 0.4715891 0.0668430
0.0530064 0.4715891 0.0668430
0.0530064 0.4715891 0.0668430
0.0530064 0.4715891 0.0668430
0.0530064 0.4715891 0.0668430
0.0690061 0.4721677 0.0674215
0.0967219 0.4731699 0.0684237
0.1275739 0.4742855 0.0695394
0.1605229 0.4754770 0.0707309
0.1950817 0.4767267 0.0719805
0.2309603 0.4780241 0.0732780
0.2679643 0.4793622 0.0746160
0.3059531 0.4807359 0.0759898
0.3448202 0.4821414 0.0773952
0.3844816 0.4835756 0.0788294
0.4248692 0.4850360 0.0802899
0.4659268 0.4865207 0.0817746
0.5076069 0.4880279 0.0832818
0.5498687 0.4895561 0.0848100
0.5926773 0.4911041 0.0863580
0.6360018 0.4926708 0.0879246
0.6798152 0.4942551 0.0895090
0.7240930 0.4958562 0.0911101
0.7688137 0.4974734 0.0927272
0.8139576 0.4991058 0.0943597
0.8595071 0.5007529 0.0960068
0.9054459 0.5024141 0.0976680
0.9348963 0.5034791 0.0987329
0.9348963 0.5034791 0.0987329
0.9348963 0.5034791 0.0987329
0.9348963 0.5034791 0.0987329
0.9348963 0.5034791 0.0987329
0.0578800 0.5150772 0.0717166
0.0578800 0.5150772 0.0717166
0.0578800 0.5150772 0.0717166
0.0578800 0.5150772 0.0717166
0.0578800 0.5150772 0.0717166
0.0578800 0.5150772 0.0717166
0.0738797 0.5156558 0.0722951
0.1015955 0.5166580 0.0732974
0.1324475 0.5177736 0.0744130
0.1653965 0.5189651 0.0756045
0.1999553 0.5202148 0.0768541
0.2358339 0.5215122 0.0781516
0.2728379 0.5228503 0.0794896
0.3108267 0.5242240 0.0808634
0.3496938 0.5256295 0.0822688
0.3893552 0.5270637 0.0837030
0.4297428 0.5285242 0.0851635
0.4708004 0.5300088 0.0866482
0.5124804 0.5315160 0.0881554
0.5547423 0.5330442 0.0896836
0.5975509 0.5345922 0.0912316
0.6408755 0.5361589 0.0927982
0.6846887 0.5377432 0.0943826
0.7289667 0.5393444 0.0959837
0.7736872 0.5409615 0.0976008
0.8188312 0.5425940 0.0992333
0.8643807 0.5442411 0.1008804
0.9103196 0.5459023 0.1025416
0.9397700 0.5469672 0.1036065
0.9397700 0.5469672 0.1036065
0.9397700 0.5469672 0.1036065
0.9397700 0.5469672 0.1036065
0.9397700 0.5469672 0.1036065
0.0628162 0.5591238 0.0766528
0.0628162 0.5591238 0.0766528
0.0628162 0.5591238 0.0766528
0.0628162 0.5591238 0.0766528
0.0628162 0.5591238 0.0766528
0.0628162 0.5591238 0.0766528
0.0788159 0.5597023 0.0772313
0.1065316 0.5607046 0.0782335
0.1373837 0.5618202 0.0793492
0.1703327 0.5630117 0.0805407
0.2048915 0.5642614 0.0817903
0.2407701 0.5655588 0.0830877
0.2777741 0.5668969 0.0844258
0.3157629 0.5682706 0.0857995
0.3546300 0.5696760 0.0872050
0.3942914 0.5711102 0.0886392
0.4346790 0.5725707 0.0900997
0.4757366 0.5740554 0.0915843
0.5174167 0.5755626 0.0930915
0.5596786 0.5770908 0.0946198
0.6024871 0.5786388 0.0961677
0.6458116 0.5802054 0.0977344
0.6896249 0.5817898 0.0993187
0.7339028 0.5833910 0.1009199
0.7786235 0.5850081 0.1025370
0.8237674 0.5866405 0.1041695
0.8693169 0.5882877 0.1058165
0.9152558 0.5899488 0.1074778
0.9447062 0.5910138 0.1085427
0.9447062 0.5910138 0.1085427
0.9447062 0.5910138 0.1085427
0.9447062 0.5910138 0.1085427
0.9447062 0.5910138 0.1085427
0.0678115 0.6036978 0.0816481
0.0678115 0.6036978 0.0816481
0.0678115 0.6036978 0.0816481
0.0678115 0.6036978 0.0816481
0.0678115 0.6036978 0.0816481
0.0678115 0.6036978 0.0816481
0.0838112 0.6042764 0.0822266
0.1115269 0.6052786 0.0832289
0.1423790 0.6063942 0.0843445
0.1753280 0.6075857 0.0855359
0.2098868 0.6088354 0.0867856
0.2457654 0.6101328 0.0880830
0.2827694 0.6114709 0.0894211
0.3207582 0.6128446 0.0907948
0.3596253 0.6142501 0.0922003
0.3992867 0.6156843 0.0936345
0.4396743 0.6171448 0.0950949
0.4807319 0.6186295 0.0965796
0.5224119 0.6201366 0.0980868
0.5646738 0.6216648 0.0996150
0.6074824 0.6232128 0.1011631
0.6508069 0.6247795 0.1027297
0.6946203 0.6263638 0.1043140
0.7388982 0.6279650 0.1059152
0.7836187 0.6295821 0.1075323
0.8287627 0.6312146 0.1091648
0.8743122 0.6328617 0.1108119
0.9202511 0.6345229 0.1124731
0.9497014 0.6355878 0.1135380
0.9497014 0.6355878 0.1135380
0.9497014 0.6355878 0.1135380
0.9497014 0.6355878 0.1135380
0.9497014 0.6355878 0.1135380
0.0728628 0.6487715 0.0866993
0.0728628 0.6487715 0.0866993
0.0728628 0.6487715 0.0866993
0.0728628 0.6487715 0.0866993
0.0728628 0.6487715 0.0866993
0.0728628 0.6487715 0.0866993
0.0888625 0.6493500 0.0872779
0.1165782 0.6503522 0.0882801
0.1474303 0.6514679 0.0893958
0.1803793 0.6526594 0.0905872
0.2149381 0.6539090 0.0918369
0.2508167 0.6552064 0.0931343
0.2878207 0.6565446 0.0944724
0.3258095 0.6579183 0.0958461
0.3646766 0.6593237 0.0972516
0.4043380 0.6607579 0.0986858
0.4447256 0.6622184 0.1001462
0.4857832 0.6637031 0.1016309
0.5274632 0.6652102 0.1031381
0.5697251 0.6667385 0.1046664
0.6125337 0.6682864 0.1062143
0.6558582 0.6698532 0.1077810
0.6996715 0.6714374 0.1093653
0.7439494 0.6730386 0.1109664
0.7886701 0.6746557 0.1125836
0.8338140 0.6762882 0.1142160
0.8793635 0.6779353 0.1158631
0.9253024 0.6795965 0.1175243
0.9547527 0.6806614 0.1185893
0.9547527 0.6806614 0.1185893
0.9547527 0.6806614 0.1185893
0.9547527 0.6806614 0.1185893
0.9547527 0.6806614 0.1185893
0.0779673 0.6943202 0.0918038
0.0779673 0.6943202 0.0918038
0.0779673 0.6943202 0.0918038
0.0779673 0.6943202 0.0918038
0.0779673 0.6943202 0.0918038
0.0779673 0.6943202 0.0918038
0.0939670 0.6948988 0.0923824
0.1216828 0.6959010 0.0933847
0.1525348 0.6970167 0.0945003
0.1854838 0.6982081 0.0956917
0.2200426 0.6994578 0.0969414
0.2559212 0.7007552 0.0982388
0.2929252 0.7020933 0.0995769
0.3309140 0.7034670 0.1009507
0.3697811 0.7048725 0.1023561
0.4094425 0.7063067 0.1037903
0.4498301 0.7077671 0.1052508
0.4908877 0.7092518 0.1067355
0.5325677 0.7107590 0.1082426
0.5748296 0.7122872 0.1097709
0.6176382 0.7138352 0.1113189
0.6609628 0.7154019 0.1128855
0.7047760 0.7169862 0.1144699
0.7490540 0.7185873 0.1160710
0.7937746 0.7202045 0.1176881
0.8389186 0.7218369 0.1193206
0.8844680 0.7234840 0.1209677
0.9304069 0.7251452 0.1226289
0.9598573 0.7262102 0.1236938
0.9598573 0.7262102 0.1236938
0.9598573 0.7262102 0.1236938
0.9598573 0.7262102 0.1236938
0.9598573 0.7262102 0.1236938
0.0831226 0.7403220 0.0969591
0.0831226 0.7403220 0.0969591
0.0831226 0.7403220 0.0969591
0.0831226 0.7403220 0.0969591
0.0831226 0.7403220 0.0969591
0.0831226 0.7403220 0.0969591
0.0991223 0.7409006 0.0975377
0.1268381 0.7419028 0.0985399
0.1576901 0.7430184 0.0996556
0.1906392 0.7442099 0.1008471
0.2251979 0.7454596 0.1020967
0.2610766 0.7467570 0.1033942
0.2980805 0.7480951 0.1047322
0.3360693 0.7494688 0.1061059
0.3749365 0.7508743 0.1075114
0.4145978 0.7523085 0.1089456
0.4549854 0.7537689 0.1104061
0.4960430 0.7552536 0.1118907
0.5377231 0.7567608 0.1133980
0.5799850 0.7582890 0.1149262
0.6227936 0.7598370 0.1164742
0.6661181 0.7614037 0.1180408
0.7099314 0.7629880 0.1196252
0.7542093 0.7645891 0.1212263
0.7989299 0.7662063 0.1228434
0.8440738 0.7678387 0.1244759
0.8896233 0.7694858 0.1261230
0.9355622 0.7711470 0.1277842
0.9650126 0.7722120 0.1288491
0.9650126 0.7722120 0.1288491
0.9650126 0.7722120 0.1288491
0.9650126 0.7722120 0.1288491
0.9650126 0.7722120 0.1288491
0.0883265 0.7867570 0.1021630
0.0883265 0.7867570 0.1021630
0.0883265 0.7867570 0.1021630
0.0883265 0.7867570 0.1021630
0.0883265 0.7867570 0.1021630
0.0883265 0.7867570 0.1021630
