luts/lume_20260429_195807.cube
TITLE "Lume Grade"
LUT_3D_SIZE 5
0.0087683 0.0307033 0.0465865
0.3266868 0.0165851 0.0324683
0.7532525 0.0000000 0.0135253
1.0000000 0.0000000 0.0000000
1.0000000 0.0000000 0.0000000
0.0000000 0.2476213 0.0103796
0.2904798 0.2335031 0.0000000
0.7170455 0.2145601 0.0000000
1.0000000 0.1961666 0.0000000
1.0000000 0.1951332 0.0000000
0.0000000 0.6091513 0.0000000
0.2301348 0.5950331 0.0000000
0.6567005 0.5760901 0.0000000
1.0000000 0.5576966 0.0000000
1.0000000 0.5566632 0.0000000
0.0000000 0.9706814 0.0000000
0.1697898 0.9565632 0.0000000
0.5963555 0.9376201 0.0000000
1.0000000 0.9192266 0.0000000
1.0000000 0.9181932 0.0000000
0.0000000 1.0000000 0.0000000
0.1532508 1.0000000 0.0000000
0.5798165 1.0000000 0.0000000
0.9940075 1.0000000 0.0000000
1.0000000 1.0000000 0.0000000
0.0060473 0.0279824 0.2322977
0.3239658 0.0138642 0.2181795
0.7505316 0.0000000 0.1992364
1.0000000 0.0000000 0.1808429
1.0000000 0.0000000 0.1798095
0.0000000 0.2449004 0.1960907
0.2877588 0.2307822 0.1819725
0.7143246 0.2118392 0.1630294
1.0000000 0.1934457 0.1446359
1.0000000 0.1924122 0.1436025
0.0000000 0.6064304 0.1357457
0.2274138 0.5923122 0.1216274
0.6539795 0.5733691 0.1026844
1.0000000 0.5549756 0.0842909
1.0000000 0.5539422 0.0832575
0.0000000 0.9679604 0.0754007
0.1670688 0.9538422 0.0612825
0.5936345 0.9348992 0.0423394
1.0000000 0.9165057 0.0239459
1.0000000 0.9154722 0.0229125
0.0000000 1.0000000 0.0588617
0.1505297 1.0000000 0.0447434
0.5770956 1.0000000 0.0258004
0.9912865 1.0000000 0.0074069
1.0000000 1.0000000 0.0063735
0.0003098 0.0222448 0.6238986
0.3182282 0.0081266 0.6097804
0.7447940 0.0000000 0.5908374
1.0000000 0.0000000 0.5724438
1.0000000 0.0000000 0.5714104
0.0000000 0.2391628 0.5876916
0.2820213 0.2250446 0.5735734
0.7085870 0.2061016 0.5546303
1.0000000 0.1877081 0.5362369
1.0000000 0.1866746 0.5352034
0.0000000 0.6006928 0.5273466
0.2216763 0.5865746 0.5132284
0.6482420 0.5676315 0.4942853
1.0000000 0.5492381 0.4758919
1.0000000 0.5482046 0.4748584
0.0000000 0.9622228 0.4670016
0.1613312 0.9481046 0.4528834
0.5878970 0.9291616 0.4339404
1.0000000 0.9107681 0.4155469
1.0000000 0.9097347 0.4145134
0.0000000 1.0000000 0.4504626
0.1447923 1.0000000 0.4363444
0.5713580 1.0000000 0.4174014
0.9855490 1.0000000 0.3990079
1.0000000 1.0000000 0.3979744
0.0000000 0.0163092 1.0000000
0.3122927 0.0021910 1.0000000
0.7388585 0.0000000 0.9959537
1.0000000 0.0000000 0.9775601
1.0000000 0.0000000 0.9765266
0.0000000 0.2332272 0.9928078
0.2760857 0.2191090 0.9786896
0.7026514 0.2001660 0.9597466
1.0000000 0.1817725 0.9413531
1.0000000 0.1807390 0.9403196
0.0000000 0.5947572 0.9324628
0.2157407 0.5806390 0.9183446
0.6423064 0.5616959 0.8994015
1.0000000 0.5433025 0.8810081
1.0000000 0.5422690 0.8799746
0.0000000 0.9562873 0.8721178
0.1553957 0.9421691 0.8579996
0.5819614 0.9232260 0.8390566
0.9961523 0.9048325 0.8206631
1.0000000 0.9037991 0.8196296
0.0000000 1.0000000 0.8555788
0.1388566 1.0000000 0.8414606
0.5654224 1.0000000 0.8225176
0.9796134 1.0000000 0.8041241
1.0000000 1.0000000 0.8030906
0.0000000 0.0134242 1.0000000
0.3094077 0.0000000 1.0000000
0.7359734 0.0000000 1.0000000
1.0000000 0.0000000 1.0000000
1.0000000 0.0000000 1.0000000
0.0000000 0.2303422 1.0000000
0.2732006 0.2162240 1.0000000
0.6997664 0.1972810 1.0000000
1.0000000 0.1788875 1.0000000
1.0000000 0.1778540 1.0000000
0.0000000 0.5918722 1.0000000
0.2128556 0.5777540 1.0000000
0.6394213 0.5588109 1.0000000
1.0000000 0.5404174 1.0000000
1.0000000 0.5393840 1.0000000
0.0000000 0.9534022 1.0000000
0.1525107 0.9392840 1.0000000
0.5790763 0.9203410 1.0000000
0.9932673 0.9019475 1.0000000
1.0000000 0.9009140 1.0000000
0.0000000 1.0000000 1.0000000
0.1359717 1.0000000 1.0000000
0.5625374 1.0000000 1.0000000
0.9767283 1.0000000 1.0000000
1.0000000 1.0000000 1.0000000
