luts/lume_20260429_195903.cube
TITLE "Lume Grade"
LUT_3D_SIZE 9
0.0001764 0.0001764 0.0140129
0.0001764 0.0001764 0.0140129
0.0747439 0.0028728 0.0167093
0.2151342 0.0079495 0.0217860
0.3720391 0.0136233 0.0274598
0.5398473 0.0196914 0.0335279
0.7159836 0.0260607 0.0398972
0.8820663 0.0320664 0.0459029
0.8820663 0.0320664 0.0459029
0.0001764 0.0001764 0.0140129
0.0001764 0.0001764 0.0140129
0.0747439 0.0028728 0.0167093
0.2151342 0.0079495 0.0217860
0.3720391 0.0136233 0.0274598
0.5398473 0.0196914 0.0335279
0.7159836 0.0260607 0.0398972
0.8820663 0.0320664 0.0459029
0.8820663 0.0320664 0.0459029
0.0129415 0.1140822 0.0267781
0.0129415 0.1140822 0.0267781
0.0875090 0.1167787 0.0294745
0.2278994 0.1218553 0.0345511
0.3848043 0.1275292 0.0402250
0.5526124 0.1335973 0.0462931
0.7287487 0.1399665 0.0526623
0.8948315 0.1459722 0.0586680
0.8948315 0.1459722 0.0586680
0.0297424 0.2640001 0.0435790
0.0297424 0.2640001 0.0435790
0.1043099 0.2666965 0.0462754
0.2447003 0.2717732 0.0513521
0.4016052 0.2774470 0.0570259
0.5694133 0.2835151 0.0630940
0.7455497 0.2898844 0.0694633
0.9116324 0.2958901 0.0754690
0.9116324 0.2958901 0.0754690
0.0481994 0.4286952 0.0620359
0.0481994 0.4286952 0.0620359
0.1227669 0.4313916 0.0647324
0.2631572 0.4364683 0.0698090
0.4200622 0.4421421 0.0754828
0.5878703 0.4482102 0.0815510
0.7640066 0.4545795 0.0879202
0.9300894 0.4605852 0.0939259
0.9300894 0.4605852 0.0939259
0.0678115 0.6036978 0.0816481
0.0678115 0.6036978 0.0816481
0.1423790 0.6063942 0.0843445
0.2827694 0.6114709 0.0894211
0.4396743 0.6171448 0.0950949
0.6074824 0.6232128 0.1011631
0.7836187 0.6295821 0.1075323
0.9497014 0.6355878 0.1135380
0.9497014 0.6355878 0.1135380
0.0883265 0.7867570 0.1021630
0.0883265 0.7867570 0.1021630
0.1628940 0.7894534 0.1048595
0.3032844 0.7945301 0.1099361
0.4601893 0.8002039 0.1156099
0.6279974 0.8062720 0.1216781
0.8041337 0.8126413 0.1280473
0.9702165 0.8186470 0.1340530
0.9702165 0.8186470 0.1340530
0.1074563 0.9574563 0.1212928
0.1074563 0.9574563 0.1212928
0.1820238 0.9601527 0.1239893
0.3224142 0.9652294 0.1290659
0.4793191 0.9709032 0.1347398
0.6471272 0.9769713 0.1408079
0.8232636 0.9833406 0.1471772
0.9893463 0.9893463 0.1531829
0.9893463 0.9893463 0.1531829
0.1074563 0.9574563 0.1212928
0.1074563 0.9574563 0.1212928
0.1820238 0.9601527 0.1239893
0.3224142 0.9652294 0.1290659
0.4793191 0.9709032 0.1347398
0.6471272 0.9769713 0.1408079
0.8232636 0.9833406 0.1471772
0.9893463 0.9893463 0.1531829
0.9893463 0.9893463 0.1531829
0.0004694 0.0004694 0.0373051
0.0004694 0.0004694 0.0373051
0.0750369 0.0031658 0.0400015
0.2154273 0.0082425 0.0450782
0.3723322 0.0139163 0.0507520
0.5401403 0.0199844 0.0568201
0.7162766 0.0263537 0.0631894
0.8823594 0.0323594 0.0691951
0.8823594 0.0323594 0.0691951
0.0004694 0.0004694 0.0373051
0.0004694 0.0004694 0.0373051
0.0750369 0.0031658 0.0400015
0.2154273 0.0082425 0.0450782
0.3723322 0.0139163 0.0507520
0.5401403 0.0199844 0.0568201
0.7162766 0.0263537 0.0631894
0.8823594 0.0323594 0.0691951
0.8823594 0.0323594 0.0691951
0.0132346 0.1143753 0.0500702
0.0132346 0.1143753 0.0500702
0.0878020 0.1170717 0.0527667
0.2281924 0.1221484 0.0578433
0.3850973 0.1278222 0.0635172
0.5529054 0.1338903 0.0695853
0.7290418 0.1402596 0.0759545
0.8951245 0.1462653 0.0819602
0.8951245 0.1462653 0.0819602
0.0300355 0.2642931 0.0668712
0.0300355 0.2642931 0.0668712
0.1046030 0.2669896 0.0695676
0.2449933 0.2720662 0.0746443
0.4018983 0.2777401 0.0803181
0.5697064 0.2838082 0.0863862
0.7458427 0.2901774 0.0927554
0.9119254 0.2961831 0.0987612
0.9119254 0.2961831 0.0987612
0.0484925 0.4289882 0.0853281
0.0484925 0.4289882 0.0853281
0.1230599 0.4316847 0.0880246
0.2634503 0.4367613 0.0931012
0.4203552 0.4424351 0.0987751
0.5881633 0.4485033 0.1048432
0.7642997 0.4548725 0.1112124
0.9303824 0.4608783 0.1172181
0.9303824 0.4608783 0.1172181
0.0681046 0.6039909 0.1049402
0.0681046 0.6039909 0.1049402
0.1426720 0.6066873 0.1076367
0.2830624 0.6117640 0.1127133
0.4399673 0.6174378 0.1183872
0.6077754 0.6235059 0.1244553
0.7839118 0.6298751 0.1308246
0.9499945 0.6358808 0.1368303
0.9499945 0.6358808 0.1368303
0.0886195 0.7870500 0.1254553
0.0886195 0.7870500 0.1254553
0.1631870 0.7897465 0.1281517
0.3035774 0.7948231 0.1332284
0.4604823 0.8004969 0.1389022
0.6282904 0.8065650 0.1449703
0.8044268 0.8129343 0.1513395
0.9705095 0.8189400 0.1573452
0.9705095 0.8189400 0.1573452
0.1077493 0.9577494 0.1445851
0.1077493 0.9577494 0.1445851
0.1823168 0.9604458 0.1472815
0.3227073 0.9655224 0.1523582
0.4796122 0.9711963 0.1580320
0.6474203 0.9772643 0.1641001
0.8235566 0.9836336 0.1704694
0.9896393 0.9896393 0.1764751
0.9896393 0.9896393 0.1764751
0.1077493 0.9577494 0.1445851
0.1077493 0.9577494 0.1445851
0.1823168 0.9604458 0.1472815
0.3227073 0.9655224 0.1523582
0.4796122 0.9711963 0.1580320
0.6474203 0.9772643 0.1641001
0.8235566 0.9836336 0.1704694
0.9896393 0.9896393 0.1764751
0.9896393 0.9896393 0.1764751
0.0021287 0.0021287 0.1691912
0.0021287 0.0021287 0.1691912
0.0766961 0.0048251 0.1718876
0.2170865 0.0099017 0.1769643
0.3739914 0.0155756 0.1826381
0.5417995 0.0216437 0.1887062
0.7179359 0.0280129 0.1950754
0.8840186 0.0340187 0.2010812
0.8840186 0.0340187 0.2010812
0.0021287 0.0021287 0.1691912
0.0021287 0.0021287 0.1691912
0.0766961 0.0048251 0.1718876
0.2170865 0.0099017 0.1769643
0.3739914 0.0155756 0.1826381
0.5417995 0.0216437 0.1887062
0.7179359 0.0280129 0.1950754
0.8840186 0.0340187 0.2010812
0.8840186 0.0340187 0.2010812
0.0148938 0.1160345 0.1819563
0.0148938 0.1160345 0.1819563
0.0894613 0.1187310 0.1846527
0.2298517 0.1238076 0.1897294
0.3867566 0.1294814 0.1954032
0.5545647 0.1355495 0.2014713
0.7307010 0.1419188 0.2078406
0.8967838 0.1479245 0.2138463
0.8967838 0.1479245 0.2138463
0.0316947 0.2659524 0.1987572
0.0316947 0.2659524 0.1987572
0.1062622 0.2686488 0.2014537
0.2466526 0.2737255 0.2065303
0.4035575 0.2793993 0.2122041
0.5713656 0.2854674 0.2182722
0.7475020 0.2918367 0.2246415
0.9135847 0.2978424 0.2306472
0.9135847 0.2978424 0.2306472
0.0501517 0.4306475 0.2172142
0.0501517 0.4306475 0.2172142
0.1247192 0.4333439 0.2199106
0.2651095 0.4384206 0.2249873
0.4220145 0.4440944 0.2306611
0.5898225 0.4501625 0.2367292
0.7659589 0.4565318 0.2430985
0.9320416 0.4625375 0.2491042
0.9320416 0.4625375 0.2491042
0.0697638 0.6056501 0.2368263
0.0697638 0.6056501 0.2368263
0.1443313 0.6083465 0.2395227
0.2847217 0.6134232 0.2445994
0.4416266 0.6190970 0.2502732
0.6094347 0.6251651 0.2563413
0.7855710 0.6315344 0.2627106
0.9516537 0.6375401 0.2687163
0.9516537 0.6375401 0.2687163
0.0902787 0.7887093 0.2573413
0.0902787 0.7887093 0.2573413
0.1648463 0.7914057 0.2600377
0.3052366 0.7964823 0.2651144
0.4621416 0.8021562 0.2707882
0.6299497 0.8082243 0.2768563
0.8060860 0.8145936 0.2832256
0.9721687 0.8205993 0.2892313
0.9721687 0.8205993 0.2892313
0.1094086 0.9594086 0.2764711
0.1094086 0.9594086 0.2764711
0.1839761 0.9621050 0.2791676
0.3243665 0.9671817 0.2842442
0.4812714 0.9728555 0.2899181
0.6490795 0.9789236 0.2959862
0.8252159 0.9852929 0.3023555
0.9912986 0.9912986 0.3083611
0.9912986 0.9912986 0.3083611
0.1094086 0.9594086 0.2764711
0.1094086 0.9594086 0.2764711
0.1839761 0.9621050 0.2791676
0.3243665 0.9671817 0.2842442
0.4812714 0.9728555 0.2899181
0.6490795 0.9789236 0.2959862
0.8252159 0.9852929 0.3023555
0.9912986 0.9912986 0.3083611
0.9912986 0.9912986 0.3083611
0.0038646 0.0038646 0.3071722
0.0038646 0.0038646 0.3071722
0.0784321 0.0065610 0.3098686
0.2188224 0.0116377 0.3149453
0.3757274 0.0173115 0.3206191
0.5435355 0.0233796 0.3266872
0.7196718 0.0297489 0.3330564
0.8857545 0.0357546 0.3390622
0.8857545 0.0357546 0.3390622
0.0038646 0.0038646 0.3071722
0.0038646 0.0038646 0.3071722
0.0784321 0.0065610 0.3098686
0.2188224 0.0116377 0.3149453
0.3757274 0.0173115 0.3206191
0.5435355 0.0233796 0.3266872
0.7196718 0.0297489 0.3330564
0.8857545 0.0357546 0.3390622
0.8857545 0.0357546 0.3390622
0.0166297 0.1177704 0.3199373
0.0166297 0.1177704 0.3199373
0.0911972 0.1204669 0.3226337
0.2315876 0.1255435 0.3277104
0.3884925 0.1312174 0.3333842
0.5563006 0.1372855 0.3394523
0.7324369 0.1436547 0.3458216
0.8985196 0.1496604 0.3518273
0.8985196 0.1496604 0.3518273
0.0334307 0.2676883 0.3367382
0.0334307 0.2676883 0.3367382
0.1079981 0.2703848 0.3394347
0.2483885 0.2754614 0.3445113
0.4052934 0.2811352 0.3501852
0.5731015 0.2872033 0.3562533
0.7492379 0.2935726 0.3626225
0.9153206 0.2995783 0.3686282
0.9153206 0.2995783 0.3686282
0.0518876 0.4323834 0.3551952
0.0518876 0.4323834 0.3551952
0.1264551 0.4350798 0.3578916
0.2668455 0.4401565 0.3629683
0.4237504 0.4458303 0.3686421
0.5915585 0.4518984 0.3747102
0.7676948 0.4582677 0.3810795
0.9337776 0.4642734 0.3870852
0.9337776 0.4642734 0.3870852
0.0714997 0.6073860 0.3748073
0.0714997 0.6073860 0.3748073
0.1460672 0.6100824 0.3775038
0.2864576 0.6151591 0.3825804
0.4433625 0.6208329 0.3882542
0.6111706 0.6269010 0.3943223
0.7873070 0.6332703 0.4006916
0.9533896 0.6392760 0.4066973
0.9533896 0.6392760 0.4066973
0.0920147 0.7904452 0.3953223
0.0920147 0.7904452 0.3953223
0.1665822 0.7931416 0.3980187
0.3069726 0.7982183 0.4030954
0.4638775 0.8038921 0.4087692
0.6316856 0.8099602 0.4148373
0.8078219 0.8163295 0.4212066
0.9739047 0.8223352 0.4272123
0.9739047 0.8223352 0.4272123
0.1111445 0.9611445 0.4144521
0.1111445 0.9611445 0.4144521
0.1857120 0.9638410 0.4171486
0.3261024 0.9689176 0.4222252
0.4830073 0.9745914 0.4278991
0.6508154 0.9806595 0.4339672
0.8269518 0.9870288 0.4403365
0.9930345 0.9930345 0.4463421
0.9930345 0.9930345 0.4463421
0.1111445 0.9611445 0.4144521
0.1111445 0.9611445 0.4144521
0.1857120 0.9638410 0.4171486
0.3261024 0.9689176 0.4222252
0.4830073 0.9745914 0.4278991
0.6508154 0.9806595 0.4339672
0.8269518 0.9870288 0.4403365
0.9930345 0.9930345 0.4463421
0.9930345 0.9930345 0.4463421
0.0056418 0.0056418 0.4484357
0.0056418 0.0056418 0.4484357
0.0802093 0.0083382 0.4511321
0.2205997 0.0134149 0.4562088
0.3775046 0.0190887 0.4618827
0.5453126 0.0251568 0.4679508
0.7214490 0.0315261 0.4743200
0.8875318 0.0375318 0.4803257
0.8875318 0.0375318 0.4803257
0.0056418 0.0056418 0.4484357
0.0056418 0.0056418 0.4484357
0.0802093 0.0083382 0.4511321
0.2205997 0.0134149 0.4562088
0.3775046 0.0190887 0.4618827
0.5453126 0.0251568 0.4679508
0.7214490 0.0315261 0.4743200
0.8875318 0.0375318 0.4803257
0.8875318 0.0375318 0.4803257
0.0184069 0.1195477 0.4612009
0.0184069 0.1195477 0.4612009
0.0929744 0.1222441 0.4638973
0.2333648 0.1273208 0.4689740
0.3902697 0.1329946 0.4746478
0.5580778 0.1390627 0.4807159
0.7342142 0.1454320 0.4870852
0.9002969 0.1514377 0.4930909
0.9002969 0.1514377 0.4930909
0.0352079 0.2694655 0.4780018
0.0352079 0.2694655 0.4780018
0.1097753 0.2721620 0.4806982
0.2501657 0.2772386 0.4857749
0.4070706 0.2829125 0.4914487
0.5748788 0.2889805 0.4975168
0.7510151 0.2953498 0.5038861
0.9170978 0.3013555 0.5098918
0.9170978 0.3013555 0.5098918
0.0536648 0.4341606 0.4964588
0.0536648 0.4341606 0.4964588
0.1282323 0.4368570 0.4991552
0.2686227 0.4419337 0.5042319
0.4255276 0.4476075 0.5099057
0.5933357 0.4536757 0.5159738
0.7694721 0.4600449 0.5223430
0.9355547 0.4660506 0.5283487
0.9355547 0.4660506 0.5283487
0.0732769 0.6091632 0.5160709
0.0732769 0.6091632 0.5160709
0.1478444 0.6118597 0.5187673
0.2882348 0.6169363 0.5238439
0.4451397 0.6226102 0.5295178
0.6129478 0.6286783 0.5355859
0.7890842 0.6350476 0.5419552
0.9551669 0.6410533 0.5479609
0.9551669 0.6410533 0.5479609
0.0937919 0.7922224 0.5365859
0.0937919 0.7922224 0.5365859
0.1683594 0.7949188 0.5392823
0.3087498 0.7999955 0.5443590
0.4656547 0.8056693 0.5500328
0.6334628 0.8117374 0.5561008
0.8095992 0.8181067 0.5624701
0.9756819 0.8241124 0.5684758
0.9756819 0.8241124 0.5684758
0.1129218 0.9629217 0.5557157
0.1129218 0.9629217 0.5557157
0.1874893 0.9656181 0.5584121
0.3278796 0.9706948 0.5634888
0.4847845 0.9763687 0.5691626
0.6525927 0.9824368 0.5752307
0.8287290 0.9888060 0.5816000
0.9948117 0.9948117 0.5876057
0.9948117 0.9948117 0.5876057
0.1129218 0.9629217 0.5557157
0.1129218 0.9629217 0.5557157
0.1874893 0.9656181 0.5584121
0.3278796 0.9706948 0.5634888
0.4847845 0.9763687 0.5691626
0.6525927 0.9824368 0.5752307
0.8287290 0.9888060 0.5816000
0.9948117 0.9948117 0.5876057
0.9948117 0.9948117 0.5876057
0.0074479 0.0074479 0.5919971
0.0074479 0.0074479 0.5919971
0.0820154 0.0101444 0.5946936
0.2224058 0.0152210 0.5997702
0.3793107 0.0208948 0.6054441
0.5471188 0.0269630 0.6115122
0.7232552 0.0333322 0.6178814
0.8893379 0.0393379 0.6238872
0.8893379 0.0393379 0.6238872
0.0074479 0.0074479 0.5919971
0.0074479 0.0074479 0.5919971
0.0820154 0.0101444 0.5946936
0.2224058 0.0152210 0.5997702
0.3793107 0.0208948 0.6054441
0.5471188 0.0269630 0.6115122
0.7232552 0.0333322 0.6178814
0.8893379 0.0393379 0.6238872
0.8893379 0.0393379 0.6238872
0.0202131 0.1213538 0.6047623
0.0202131 0.1213538 0.6047623
0.0947805 0.1240502 0.6074588
0.2351709 0.1291269 0.6125354
0.3920758 0.1348007 0.6182092
0.5598840 0.1408688 0.6242774
0.7360203 0.1472381 0.6306466
0.9021031 0.1532438 0.6366523
0.9021031 0.1532438 0.6366523
0.0370140 0.2712717 0.6215632
0.0370140 0.2712717 0.6215632
0.1115815 0.2739681 0.6242597
0.2519718 0.2790447 0.6293363
0.4088768 0.2847186 0.6350101
0.5766849 0.2907867 0.6410782
0.7528212 0.2971559 0.6474475
0.9189039 0.3031617 0.6534532
0.9189039 0.3031617 0.6534532
0.0554710 0.4359668 0.6400202
0.0554710 0.4359668 0.6400202
0.1300384 0.4386632 0.6427166
0.2704288 0.4437398 0.6477933
0.4273337 0.4494137 0.6534671
0.5951418 0.4554818 0.6595352
0.7712782 0.4618510 0.6659045
0.9373609 0.4678567 0.6719102
0.9373609 0.4678567 0.6719102
0.0750830 0.6109694 0.6596323
0.0750830 0.6109694 0.6596323
0.1496505 0.6136658 0.6623287
0.2900409 0.6187425 0.6674054
0.4469458 0.6244163 0.6730792
0.6147540 0.6304844 0.6791473
0.7908903 0.6368536 0.6855166
0.9569730 0.6428593 0.6915223
0.9569730 0.6428593 0.6915223
0.0955980 0.7940285 0.6801473
0.0955980 0.7940285 0.6801473
0.1701655 0.7967250 0.6828437
0.3105559 0.8018016 0.6879204
0.4674608 0.8074754 0.6935942
0.6352689 0.8135436 0.6996623
0.8114053 0.8199128 0.7060316
0.9774880 0.8259186 0.7120373
0.9774880 0.8259186 0.7120373
0.1147279 0.9647279 0.6992771
0.1147279 0.9647279 0.6992771
0.1892954 0.9674243 0.7019736
0.3296857 0.9725009 0.7070502
0.4865907 0.9781747 0.7127240
0.6543988 0.9842429 0.7187921
0.8305351 0.9906121 0.7251614
0.9966179 0.9966179 0.7311671
0.9966179 0.9966179 0.7311671
0.1147279 0.9647279 0.6992771
0.1147279 0.9647279 0.6992771
0.1892954 0.9674243 0.7019736
0.3296857 0.9725009 0.7070502
0.4865907 0.9781747 0.7127240
0.6543988 0.9842429 0.7187921
0.8305351 0.9906121 0.7251614
0.9966179 0.9966179 0.7311671
0.9966179 0.9966179 0.7311671
0.0092764 0.0092764 0.7373374
0.0092764 0.0092764 0.7373374
0.0838439 0.0119729 0.7400338
0.2242343 0.0170495 0.7451105
0.3811392 0.0227234 0.7507843
0.5489473 0.0287915 0.7568524
0.7250836 0.0351607 0.7632217
0.8911663 0.0411664 0.7692274
0.8911663 0.0411664 0.7692274
0.0092764 0.0092764 0.7373374
0.0092764 0.0092764 0.7373374
0.0838439 0.0119729 0.7400338
0.2242343 0.0170495 0.7451105
0.3811392 0.0227234 0.7507843
0.5489473 0.0287915 0.7568524
0.7250836 0.0351607 0.7632217
0.8911663 0.0411664 0.7692274
0.8911663 0.0411664 0.7692274
0.0220416 0.1231823 0.7501025
0.0220416 0.1231823 0.7501025
0.0966091 0.1258787 0.7527990
0.2369994 0.1309554 0.7578757
0.3939044 0.1366292 0.7635494
0.5617124 0.1426973 0.7696176
0.7378488 0.1490666 0.7759868
0.9039315 0.1550723 0.7819926
0.9039315 0.1550723 0.7819926
0.0388425 0.2731002 0.7669035
0.0388425 0.2731002 0.7669035
0.1134100 0.2757966 0.7695999
0.2538004 0.2808733 0.7746766
0.4107053 0.2865471 0.7803503
0.5785134 0.2926152 0.7864184
0.7546498 0.2989845 0.7927877
0.9207325 0.3049902 0.7987934
0.9207325 0.3049902 0.7987934
0.0572995 0.4377953 0.7853605
0.0572995 0.4377953 0.7853605
0.1318670 0.4404917 0.7880569
0.2722573 0.4455684 0.7931335
0.4291622 0.4512422 0.7988073
0.5969703 0.4573103 0.8048754
0.7731067 0.4636796 0.8112447
0.9391894 0.4696853 0.8172504
0.9391894 0.4696853 0.8172504
0.0769116 0.6127979 0.8049725
0.0769116 0.6127979 0.8049725
0.1514791 0.6154943 0.8076689
0.2918694 0.6205710 0.8127456
0.4487744 0.6262448 0.8184195
0.6165825 0.6323129 0.8244876
0.7927188 0.6386822 0.8308568
0.9588015 0.6446879 0.8368625
0.9588015 0.6446879 0.8368625
0.0974265 0.7958571 0.8254875
0.0974265 0.7958571 0.8254875
0.1719941 0.7985535 0.8281839
0.3123844 0.8036301 0.8332606
0.4692894 0.8093040 0.8389344
0.6370975 0.8153721 0.8450025
0.8132338 0.8217413 0.8513718
0.9793165 0.8277470 0.8573775
0.9793165 0.8277470 0.8573775
0.1165564 0.9665564 0.8446174
0.1165564 0.9665564 0.8446174
0.1911239 0.9692528 0.8473138
0.3315143 0.9743295 0.8523905
0.4884192 0.9800033 0.8580643
0.6562273 0.9860714 0.8641324
0.8323637 0.9924406 0.8705016
0.9984463 0.9984463 0.8765073
0.9984463 0.9984463 0.8765073
0.1165564 0.9665564 0.8446174
0.1165564 0.9665564 0.8446174
0.1911239 0.9692528 0.8473138
0.3315143 0.9743295 0.8523905
0.4884192 0.9800033 0.8580643
0.6562273 0.9860714 0.8641324
0.8323637 0.9924406 0.8705016
0.9984463 0.9984463 0.8765073
0.9984463 0.9984463 0.8765073
0.0108301 0.0108301 0.8608300
0.0108301 0.0108301 0.8608300
0.0853976 0.0135265 0.8635265
0.2257879 0.0186032 0.8686031
0.3826928 0.0242770 0.8742769
0.5505009 0.0303451 0.8803450
0.7266374 0.0367144 0.8867143
0.8927200 0.0427201 0.8927200
0.8927200 0.0427201 0.8927200
0.0108301 0.0108301 0.8608300
0.0108301 0.0108301 0.8608300
0.0853976 0.0135265 0.8635265
0.2257879 0.0186032 0.8686031
0.3826928 0.0242770 0.8742769
0.5505009 0.0303451 0.8803450
0.7266374 0.0367144 0.8867143
0.8927200 0.0427201 0.8927200
0.8927200 0.0427201 0.8927200
0.0235952 0.1247360 0.8735952
0.0235952 0.1247360 0.8735952
0.0981627 0.1274324 0.8762916
0.2385531 0.1325090 0.8813683
0.3954580 0.1381829 0.8870422
0.5632661 0.1442510 0.8931103
0.7394024 0.1506202 0.8994794
0.9054852 0.1566259 0.9054852
0.9054852 0.1566259 0.9054852
0.0403962 0.2746538 0.8903961
0.0403962 0.2746538 0.8903961
0.1149636 0.2773502 0.8930925
0.2553540 0.2824269 0.8981692
0.4122589 0.2881007 0.9038430
0.5800670 0.2941688 0.9099111
0.7562034 0.3005381 0.9162804
0.9222861 0.3065438 0.9222861
0.9222861 0.3065438 0.9222861
0.0588531 0.4393489 0.9088531
0.0588531 0.4393489 0.9088531
0.1334206 0.4420453 0.9115494
0.2738110 0.4471220 0.9166261
0.4307159 0.4527958 0.9223000
0.5985240 0.4588639 0.9283681
0.7746603 0.4652332 0.9347373
0.9407431 0.4712389 0.9407431
0.9407431 0.4712389 0.9407431
0.0784652 0.6143515 0.9284652
0.0784652 0.6143515 0.9284652
0.1530327 0.6170480 0.9311616
0.2934231 0.6221246 0.9362383
0.4503280 0.6277984 0.9419121
0.6181361 0.6338665 0.9479802
0.7942725 0.6402358 0.9543495
0.9603552 0.6462415 0.9603552
0.9603552 0.6462415 0.9603552
0.0989802 0.7974107 0.9489802
0.0989802 0.7974107 0.9489802
0.1735477 0.8001071 0.9516766
0.3139381 0.8051838 0.9567533
0.4708430 0.8108577 0.9624271
0.6386511 0.8169257 0.9684952
0.8147874 0.8232950 0.9748644
0.9808701 0.8293007 0.9808701
0.9808701 0.8293007 0.9808701
0.1181101 0.9681100 0.9681100
0.1181101 0.9681100 0.9681100
0.1926776 0.9708064 0.9708064
0.3330679 0.9758831 0.9758831
0.4899728 0.9815570 0.9815570
0.6577809 0.9876250 0.9876250
0.8339173 0.9939943 0.9939943
1.0000000 1.0000000 1.0000000
1.0000000 1.0000000 1.0000000
0.1181101 0.9681100 0.9681100
0.1181101 0.9681100 0.9681100
0.1926776 0.9708064 0.9708064
0.3330679 0.9758831 0.9758831
0.4899728 0.9815570 0.9815570
0.6577809 0.9876250 0.9876250
0.8339173 0.9939943 0.9939943
1.0000000 1.0000000 1.0000000
1.0000000 1.0000000 1.0000000
0.0108301 0.0108301 0.8608300
0.0108301 0.0108301 0.8608300
0.0853976 0.0135265 0.8635265
0.2257879 0.0186032 0.8686031
0.3826928 0.0242770 0.8742769
0.5505009 0.0303451 0.8803450
0.7266374 0.0367144 0.8867143
0.8927200 0.0427201 0.8927200
0.8927200 0.0427201 0.8927200
0.0108301 0.0108301 0.8608300
0.0108301 0.0108301 0.8608300
0.0853976 0.0135265 0.8635265
0.2257879 0.0186032 0.8686031
0.3826928 0.0242770 0.8742769
0.5505009 0.0303451 0.8803450
0.7266374 0.0367144 0.8867143
0.8927200 0.0427201 0.8927200
0.8927200 0.0427201 0.8927200
0.0235952 0.1247360 0.8735952
0.0235952 0.1247360 0.8735952
0.0981627 0.1274324 0.8762916
0.2385531 0.1325090 0.8813683
0.3954580 0.1381829 0.8870422
0.5632661 0.1442510 0.8931103
0.7394024 0.1506202 0.8994794
0.9054852 0.1566259 0.9054852
0.9054852 0.1566259 0.9054852
0.0403962 0.2746538 0.8903961
0.0403962 0.2746538 0.8903961
0.1149636 0.2773502 0.8930925
0.2553540 0.2824269 0.8981692
0.4122589 0.2881007 0.9038430
0.5800670 0.2941688 0.9099111
0.7562034 0.3005381 0.9162804
0.9222861 0.3065438 0.9222861
0.9222861 0.3065438 0.9222861
0.0588531 0.4393489 0.9088531
0.0588531 0.4393489 0.9088531
0.1334206 0.4420453 0.9115494
0.2738110 0.4471220 0.9166261
0.4307159 0.4527958 0.9223000
0.5985240 0.4588639 0.9283681
0.7746603 0.4652332 0.9347373
0.9407431 0.4712389 0.9407431
0.9407431 0.4712389 0.9407431
0.0784652 0.6143515 0.9284652
0.0784652 0.6143515 0.9284652
0.1530327 0.6170480 0.9311616
0.2934231 0.6221246 0.9362383
0.4503280 0.6277984 0.9419121
0.6181361 0.6338665 0.9479802
0.7942725 0.6402358 0.9543495
0.9603552 0.6462415 0.9603552
0.9603552 0.6462415 0.9603552
0.0989802 0.7974107 0.9489802
0.0989802 0.7974107 0.9489802
0.1735477 0.8001071 0.9516766
0.3139381 0.8051838 0.9567533
0.4708430 0.8108577 0.9624271
0.6386511 0.8169257 0.9684952
0.8147874 0.8232950 0.9748644
0.9808701 0.8293007 0.9808701
0.9808701 0.8293007 0.9808701
0.1181101 0.9681100 0.9681100
0.1181101 0.9681100 0.9681100
0.1926776 0.9708064 0.9708064
0.3330679 0.9758831 0.9758831
0.4899728 0.9815570 0.9815570
0.6577809 0.9876250 0.9876250
0.8339173 0.9939943 0.9939943
1.0000000 1.0000000 1.0000000
1.0000000 1.0000000 1.0000000
0.1181101 0.9681100 0.9681100
0.1181101 0.9681100 0.9681100
0.1926776 0.9708064 0.9708064
0.3330679 0.9758831 0.9758831
0.4899728 0.9815570 0.9815570
0.6577809 0.9876250 0.9876250
0.8339173 0.9939943 0.9939943
1.0000000 1.0000000 1.0000000
1.0000000 1.0000000 1.0000000
